; generated by Slic3r 1.1.7 on 2015-01-09 at 19:21:03

; perimeters extrusion width = 0.50mm
; infill extrusion width = 0.52mm
; solid infill extrusion width = 0.52mm
; top infill extrusion width = 0.52mm

G21 ; set units to millimeters
M107
M104 S245 ; set temperature
G28 ; home all axes
G92 X0 Y0 Z0 ; reset position - need to be removed after end stoppers will be set up
G1 Z5 F5000 ; lift nozzle
M176 S255 ; enable big cooler


M109 S245 ; wait for temperature to be reached
G90 ; use absolute coordinates
G92 E0
M82 ; use absolute distances for extrusion
G1 F1800.000 E-1.00000
G92 E0
G1 Z0.400 F12000.000
G1 X59.961 Y60.770 F12000.000
G1 E1.00000 F1800.000
G1 X61.712 Y59.302 E1.07482 F1080.000
G1 X65.000 Y58.421 E1.18624
G1 X115.000 Y58.421 E2.82317
G1 X117.251 Y58.818 E2.89799
G1 X119.230 Y59.961 E2.97281 F1080.000
G1 X120.698 Y61.712 E3.04763
G1 X121.579 Y65.000 E3.15906
G1 X121.579 Y75.000 E3.48644
G1 X121.182 Y77.251 E3.56126
G1 X119.652 Y79.652 E3.65447
G1 X79.652 Y119.652 E5.50645
G1 X77.780 Y120.962 E5.58127
G1 X75.000 Y121.579 E5.67448
G1 X65.000 Y121.579 E6.00186
G1 X62.749 Y121.182 E6.07668
G1 X60.770 Y120.039 E6.15150
G1 X59.302 Y118.288 E6.22632
G1 X58.421 Y115.000 E6.33774
G1 X58.421 Y65.000 E7.97468
G1 X58.818 Y62.749 E8.04950
G1 X59.924 Y60.835 E8.12186
G1 F1800.000 E7.12186
G92 E0
G1 X61.527 Y62.336 F12000.000
G1 E1.00000 F1800.000
G1 X63.203 Y60.661 E1.07757 F1080.000
G1 X116.797 Y60.661 E2.83218
G1 X119.339 Y63.203 E2.94987
G1 X119.339 Y76.797 E3.39493 F1080.000
G1 X116.797 Y79.339 E3.51262
G1 X79.678 Y79.339 E4.72785
G1 X79.339 Y79.678 E4.74354
G1 X79.339 Y116.797 E5.95878
G1 X76.797 Y119.339 E6.07646
G1 X63.203 Y119.339 E6.52153
G1 X60.661 Y116.797 E6.63921
G1 X60.661 Y63.203 E8.39383
G1 X61.474 Y62.389 E8.43149
G1 X61.936 Y62.745 F12000.000
G1 X63.442 Y61.239 E8.50121 F1080.000
G1 X116.558 Y61.239 E10.24013
G1 X118.761 Y63.442 E10.34212 F1080.000
G1 X118.761 Y76.558 E10.77150
G1 X116.558 Y78.761 E10.87349
G1 X79.099 Y78.761 E12.09982
G1 X78.761 Y79.099 E12.11552
G1 X78.761 Y116.558 E13.34185
G1 X76.558 Y118.761 E13.44384
G1 X63.442 Y118.761 E13.87322
G1 X61.239 Y116.558 E13.97521
G1 X61.239 Y63.442 E15.71413
G1 X61.883 Y62.798 E15.74394
G1 X62.346 Y63.155 F12000.000
G1 X63.682 Y61.818 E15.80582 F1080.000
G1 X116.318 Y61.818 E17.52905
G1 X118.182 Y63.682 E17.61535
G1 X118.182 Y76.318 E18.02904 F1080.000
G1 X116.318 Y78.182 E18.11534
G1 X78.521 Y78.182 E19.35277
G1 X78.182 Y78.521 E19.36846
G1 X78.182 Y116.318 E20.60589
G1 X76.318 Y118.182 E20.69219
G1 X63.682 Y118.182 E21.10587
G1 X61.818 Y116.318 E21.19217
G1 X61.818 Y63.682 E22.91541
G1 X62.292 Y63.208 E22.93737
G1 X62.755 Y63.564 F12000.000
G1 X63.922 Y62.397 E22.99140 F1080.000
G1 X116.078 Y62.397 E24.69895
G1 X117.603 Y63.922 E24.76956 F1080.000
G1 X117.603 Y76.078 E25.16755
G1 X116.078 Y77.603 E25.23816
G1 X77.942 Y77.603 E26.48668
G1 X77.603 Y77.942 E26.50237
G1 X77.603 Y116.078 E27.75090
G1 X76.078 Y117.603 E27.82151
G1 X63.922 Y117.603 E28.21950
G1 X62.397 Y116.078 E28.29011
G1 X62.397 Y63.922 E29.99765
G1 X62.702 Y63.617 E30.01177
G1 X63.164 Y63.973 F12000.000
G1 X64.161 Y62.975 E30.05796 F1080.000
G1 X115.839 Y62.975 E31.74981
G1 X117.025 Y64.161 E31.80473
G1 X117.025 Y75.839 E32.18704 F1080.000
G1 X115.839 Y77.025 E32.24195
G1 X77.364 Y77.025 E33.50157
G1 X77.025 Y77.364 E33.51726
G1 X77.025 Y115.839 E34.77688
G1 X75.839 Y117.025 E34.83180
G1 X64.161 Y117.025 E35.21410
G1 X62.975 Y115.839 E35.26902
G1 X62.975 Y64.161 E36.96087
G1 X63.111 Y64.026 E36.96715
G1 X63.573 Y64.382 F12000.000
G1 X64.401 Y63.554 E37.00549 F1080.000
G1 X115.599 Y63.554 E38.68165
G1 X116.446 Y64.401 E38.72088 F1080.000
G1 X116.446 Y75.599 E39.08749
G1 X115.599 Y76.446 E39.12672
G1 X76.785 Y76.446 E40.39743
G1 X76.446 Y76.785 E40.41312
G1 X76.446 Y115.599 E41.68384
G1 X75.599 Y116.446 E41.72306
G1 X64.401 Y116.446 E42.08968
G1 X63.554 Y115.599 E42.12890
G1 X63.554 Y64.449 E43.80349
G1 X64.132 Y64.641 F12000.000
G1 X64.641 Y64.132 E43.82703 F1080.000
G1 X115.359 Y64.132 E45.48750
G1 X115.868 Y64.641 E45.51104
G1 X115.868 Y75.359 E45.86196 F1080.000
G1 X115.359 Y75.868 E45.88550
G1 X76.207 Y75.868 E47.16730
G1 X75.868 Y76.207 E47.18300
G1 X75.868 Y115.359 E48.46480
G1 X75.359 Y115.868 E48.48834
G1 X64.641 Y115.868 E48.83926
G1 X64.132 Y115.359 E48.86280
G1 X64.132 Y64.716 E50.52081
G1 X64.880 Y64.711 F12000.000
G1 X115.120 Y64.711 E52.16559 F1080.000
G1 X115.289 Y64.880 E52.17344
G1 X115.289 Y75.120 E52.50867
G1 X115.120 Y75.289 E52.51651
G1 X75.628 Y75.289 E53.80942
G1 X75.289 Y75.628 E53.82511
G1 X75.289 Y115.120 E55.11801
G1 X75.120 Y115.289 E55.12586
G1 X64.880 Y115.289 E55.46109
G1 X64.711 Y115.120 E55.46894
G1 X64.711 Y64.880 E57.11371
G1 X64.827 Y64.764 E57.11910
G1 F1800.000 E56.11910
G92 E0
G1 X74.700 Y74.700 F12000.000
G1 E1.00000 F1800.000
G1 X74.700 Y114.700 E2.30955 F378.000
G1 X65.300 Y114.700 E2.61729
G1 X65.300 Y65.300 E4.23458
G1 X114.700 Y65.300 E5.85187
G1 X114.700 Y74.700 E6.15961
G1 X74.775 Y74.700 E7.46670
G1 X74.200 Y74.700 F12000.000
G1 X74.121 Y74.121 F12000.000
G1 X74.121 Y114.121 E8.77625 F540.000
G1 X65.879 Y114.121 E9.04611
G1 X65.879 Y65.879 E10.62552
G1 X114.121 Y65.879 E12.20493
G1 X114.121 Y74.121 E12.47479
G1 X74.196 Y74.121 E13.78188
G1 X72.800 Y107.200 F12000.000
G1 X72.800 Y112.800 E13.96522 F378.000
G1 X67.200 Y112.800 E14.14855
G1 X67.200 Y107.200 E14.33189
G1 X72.725 Y107.200 E14.51277
G1 X73.300 Y107.200 F12000.000
G1 X73.379 Y106.621 F12000.000
G1 X73.379 Y113.379 E14.73399 F540.000
G1 X66.621 Y113.379 E14.95521
G1 X66.621 Y106.621 E15.17643
G1 X73.304 Y106.621 E15.39519
G1 X72.800 Y105.300 F12000.000
G1 X67.200 Y105.300 E15.57852 F378.000
G1 X67.200 Y74.700 E16.58033
G1 X72.800 Y74.700 E16.76366
G1 X72.800 Y105.225 E17.76301
G1 X72.800 Y105.800 F12000.000
G1 X73.379 Y105.879 F12000.000
G1 X66.621 Y105.879 E17.98423 F540.000
G1 X66.621 Y74.121 E19.02391
G1 X73.379 Y74.121 E19.24513
G1 X73.379 Y105.804 E20.28236
G1 X72.800 Y72.800 F12000.000
G1 X67.200 Y72.800 E20.46570 F378.000
G1 X67.200 Y67.200 E20.64903
G1 X72.800 Y67.200 E20.83237
G1 X72.800 Y72.725 E21.01325
G1 X72.800 Y73.300 F12000.000
G1 X73.379 Y73.379 F12000.000
G1 X66.621 Y73.379 E21.23447 F540.000
G1 X66.621 Y66.621 E21.45569
G1 X73.379 Y66.621 E21.67690
G1 X73.379 Y73.304 E21.89567
G1 X74.700 Y72.800 F12000.000
G1 X74.700 Y67.200 E22.07900 F378.000
G1 X105.300 Y67.200 E23.08081
G1 X105.300 Y72.800 E23.26414
G1 X74.775 Y72.800 E24.26349
G1 X74.200 Y72.800 F12000.000
G1 X74.121 Y73.379 F12000.000
G1 X74.121 Y66.621 E24.48471 F540.000
G1 X105.879 Y66.621 E25.52439
G1 X105.879 Y73.379 E25.74561
G1 X74.196 Y73.379 E26.78284
G1 X107.200 Y72.800 F12000.000
G1 X107.200 Y67.200 E26.96617 F378.000
G1 X112.800 Y67.200 E27.14951
G1 X112.800 Y72.800 E27.33285
G1 X107.275 Y72.800 E27.51373
G1 X106.700 Y72.800 F12000.000
G1 X106.621 Y73.379 F12000.000
G1 X106.621 Y66.621 E27.73495 F540.000
G1 X113.379 Y66.621 E27.95616
G1 X113.379 Y73.379 E28.17738
G1 X106.696 Y73.379 E28.39614
M106 S173
M104 S240 ; set temperature
G1 F1800.000 E27.39614
G92 E0
G1 Z0.800 F12000.000
G1 X106.750 Y73.250 F12000.000
G1 E1.00000 F1800.000
G1 X106.750 Y66.750 E1.18391 F1800.000
G1 X113.250 Y66.750 E1.36782
G1 X113.250 Y73.250 E1.55174
G1 X106.825 Y73.250 E1.73353
G1 X107.250 Y72.750 F12000.000
G1 X107.250 Y67.250 E1.88915 F1260.000
G1 X112.750 Y67.250 E2.04476
G1 X112.750 Y72.750 E2.20038
G1 X107.325 Y72.750 E2.35388
G1 X106.750 Y72.750 F12000.000
G1 X105.750 Y73.250 F12000.000
G1 X74.250 Y73.250 E3.24515 F1800.000
G1 X74.250 Y66.750 E3.42906
G1 X105.750 Y66.750 E4.32033
G1 X105.750 Y73.175 E4.50212
G1 X105.250 Y72.750 F12000.000
G1 X74.750 Y72.750 E5.36509 F1260.000
G1 X74.750 Y67.250 E5.52071
G1 X105.250 Y67.250 E6.38368
G1 X105.250 Y72.675 E6.53718
G1 X105.250 Y73.250 F12000.000
G1 X73.250 Y73.250 F12000.000
G1 X66.750 Y73.250 E6.72109 F1800.000
G1 X66.750 Y66.750 E6.90500
G1 X73.250 Y66.750 E7.08891
G1 X73.250 Y73.175 E7.27070
G1 X72.750 Y72.750 F12000.000
G1 X67.250 Y72.750 E7.42632 F1260.000
G1 X67.250 Y67.250 E7.58194
G1 X72.750 Y67.250 E7.73756
G1 X72.750 Y72.675 E7.89106
G1 X72.750 Y73.250 F12000.000
G1 X73.250 Y74.250 F12000.000
G1 X73.250 Y105.750 E8.78232 F1800.000
G1 X66.750 Y105.750 E8.96624
G1 X66.750 Y74.250 E9.85750
G1 X73.175 Y74.250 E10.03929
G1 X72.750 Y74.750 F12000.000
G1 X72.750 Y105.250 E10.90227 F1260.000
G1 X67.250 Y105.250 E11.05789
G1 X67.250 Y74.750 E11.92086
G1 X72.675 Y74.750 E12.07435
G1 X73.250 Y74.750 F12000.000
G1 X73.250 Y106.750 F12000.000
G1 X73.250 Y113.250 E12.25827 F1800.000
G1 X66.750 Y113.250 E12.44218
G1 X66.750 Y106.750 E12.62609
G1 X73.175 Y106.750 E12.80788
G1 X72.750 Y107.250 F12000.000
G1 X72.750 Y112.750 E12.96350 F1260.000
G1 X67.250 Y112.750 E13.11912
G1 X67.250 Y107.250 E13.27474
G1 X72.675 Y107.250 E13.42823
G1 X73.250 Y107.250 F12000.000
G1 X74.250 Y74.250 F12000.000
G1 X74.250 Y114.250 E14.56000 F1800.000
G1 X65.750 Y114.250 E14.80050
G1 X65.750 Y65.750 E16.17277
G1 X114.250 Y65.750 E17.54504
G1 X114.250 Y74.250 E17.78554
G1 X74.325 Y74.250 E18.91519
G1 X74.750 Y74.750 F12000.000
G1 X74.750 Y114.750 E20.04696 F1260.000
G1 X65.250 Y114.750 E20.31575
G1 X65.250 Y65.250 E21.71632
G1 X114.750 Y65.250 E23.11688
G1 X114.750 Y74.750 E23.38567
G1 X74.825 Y74.750 E24.51532
G1 X74.250 Y74.750 F12000.000
G1 X73.750 Y73.250 F12000.000
G1 X73.750 Y106.000 E25.07807 F1200.000
G1 X73.688 Y106.250 E25.08249
G1 X66.313 Y106.250 E25.20922
G1 X66.250 Y106.500 E25.21365
G1 X66.250 Y113.500 E25.33393
G1 X66.293 Y113.707 E25.33756
G1 X66.500 Y113.750 E25.34120
G1 X73.500 Y113.750 E25.46148
G1 X73.707 Y113.707 E25.46511
G1 X73.750 Y113.500 E25.46875
G1 X73.750 Y106.500 E25.58903
G1 X73.566 Y105.765 E25.60205
G1 X66.434 Y106.735 F12000.000
G1 X66.250 Y106.000 E25.61507 F1200.000
G1 X66.250 Y74.000 E26.16493
G1 X66.313 Y73.750 E26.16936
G1 X74.250 Y73.750 E26.30575
G1 X74.235 Y66.434 F12000.000
G1 X73.500 Y66.250 E26.31877 F1200.000
G1 X66.500 Y66.250 E26.43905
G1 X66.293 Y66.293 E26.44268
G1 X66.250 Y66.500 E26.44632
G1 X66.250 Y73.500 E26.56660
G1 X66.434 Y74.235 E26.57962
G1 X106.735 Y73.566 F12000.000
G1 X106.000 Y73.750 E26.59264 F1200.000
G1 X73.750 Y73.750 E27.14679
G1 X73.750 Y66.313 E27.27459
G1 X74.000 Y66.250 E27.27902
G1 X106.000 Y66.250 E27.82888
G1 X106.735 Y66.434 E27.84190
G1 X106.250 Y73.688 F12000.000
G1 X106.250 Y66.313 E27.96862 F1200.000
G1 X106.500 Y66.250 E27.97305
G1 X113.500 Y66.250 E28.09333
G1 X113.707 Y66.293 E28.09697
G1 X113.750 Y66.500 E28.10060
G1 X113.750 Y73.500 E28.22088
G1 X113.707 Y73.707 E28.22452
G1 X113.500 Y73.750 E28.22815
G1 X106.500 Y73.750 E28.34843
G1 X106.323 Y73.706 E28.35157
G1 F1800.000 E27.35157
G92 E0
G1 Z1.200 F12000.000
G1 X106.750 Y73.250 F12000.000
G1 E1.00000 F1800.000
G1 X106.750 Y66.750 E1.18391 F1800.000
G1 X113.250 Y66.750 E1.36782
G1 X113.250 Y73.250 E1.55174
G1 X106.825 Y73.250 E1.73353
G1 X107.250 Y72.750 F12000.000
G1 X107.250 Y67.250 E1.88915 F1260.000
G1 X112.750 Y67.250 E2.04476
G1 X112.750 Y72.750 E2.20038
G1 X107.325 Y72.750 E2.35388
G1 X106.750 Y72.750 F12000.000
G1 X105.750 Y73.250 F12000.000
G1 X74.250 Y73.250 E3.24515 F1800.000
G1 X74.250 Y66.750 E3.42906
G1 X105.750 Y66.750 E4.32033
G1 X105.750 Y73.175 E4.50212
G1 X105.250 Y72.750 F12000.000
G1 X74.750 Y72.750 E5.36509 F1260.000
G1 X74.750 Y67.250 E5.52071
G1 X105.250 Y67.250 E6.38368
G1 X105.250 Y72.675 E6.53718
G1 X105.250 Y73.250 F12000.000
G1 X73.250 Y73.250 F12000.000
G1 X66.750 Y73.250 E6.72109 F1800.000
G1 X66.750 Y66.750 E6.90500
G1 X73.250 Y66.750 E7.08891
G1 X73.250 Y73.175 E7.27070
G1 X72.750 Y72.750 F12000.000
G1 X67.250 Y72.750 E7.42632 F1260.000
G1 X67.250 Y67.250 E7.58194
G1 X72.750 Y67.250 E7.73756
G1 X72.750 Y72.675 E7.89106
G1 X72.750 Y73.250 F12000.000
G1 X73.250 Y74.250 F12000.000
G1 X73.250 Y105.750 E8.78232 F1800.000
G1 X66.750 Y105.750 E8.96624
G1 X66.750 Y74.250 E9.85750
G1 X73.175 Y74.250 E10.03929
G1 X72.750 Y74.750 F12000.000
G1 X72.750 Y105.250 E10.90227 F1260.000
G1 X67.250 Y105.250 E11.05789
G1 X67.250 Y74.750 E11.92086
G1 X72.675 Y74.750 E12.07435
G1 X73.250 Y74.750 F12000.000
G1 X73.250 Y106.750 F12000.000
G1 X73.250 Y113.250 E12.25827 F1800.000
G1 X66.750 Y113.250 E12.44218
G1 X66.750 Y106.750 E12.62609
G1 X73.175 Y106.750 E12.80788
G1 X72.750 Y107.250 F12000.000
G1 X72.750 Y112.750 E12.96350 F1260.000
G1 X67.250 Y112.750 E13.11912
G1 X67.250 Y107.250 E13.27474
G1 X72.675 Y107.250 E13.42823
G1 X73.250 Y107.250 F12000.000
G1 X74.250 Y74.250 F12000.000
G1 X74.250 Y114.250 E14.56000 F1800.000
G1 X65.750 Y114.250 E14.80050
G1 X65.750 Y65.750 E16.17277
G1 X114.250 Y65.750 E17.54504
G1 X114.250 Y74.250 E17.78554
G1 X74.325 Y74.250 E18.91519
G1 X74.750 Y74.750 F12000.000
G1 X74.750 Y114.750 E20.04696 F1260.000
G1 X65.250 Y114.750 E20.31575
G1 X65.250 Y65.250 E21.71632
G1 X114.750 Y65.250 E23.11688
G1 X114.750 Y74.750 E23.38567
G1 X74.825 Y74.750 E24.51532
G1 X74.250 Y74.750 F12000.000
G1 X73.750 Y73.250 F12000.000
G1 X73.750 Y106.000 E25.07807 F1200.000
G1 X73.688 Y106.250 E25.08249
G1 X66.313 Y106.250 E25.20922
G1 X66.250 Y106.500 E25.21365
G1 X66.250 Y113.500 E25.33393
G1 X66.293 Y113.707 E25.33756
G1 X66.500 Y113.750 E25.34120
G1 X73.500 Y113.750 E25.46148
G1 X73.707 Y113.707 E25.46511
G1 X73.750 Y113.500 E25.46875
G1 X73.750 Y106.500 E25.58903
G1 X73.566 Y105.765 E25.60205
G1 X66.434 Y106.735 F12000.000
G1 X66.250 Y106.000 E25.61507 F1200.000
G1 X66.250 Y74.000 E26.16493
G1 X66.313 Y73.750 E26.16936
G1 X74.250 Y73.750 E26.30575
G1 X74.235 Y66.434 F12000.000
G1 X73.500 Y66.250 E26.31877 F1200.000
G1 X66.500 Y66.250 E26.43905
G1 X66.293 Y66.293 E26.44268
G1 X66.250 Y66.500 E26.44632
G1 X66.250 Y73.500 E26.56660
G1 X66.434 Y74.235 E26.57962
G1 X106.735 Y73.566 F12000.000
G1 X106.000 Y73.750 E26.59264 F1200.000
G1 X73.750 Y73.750 E27.14679
G1 X73.750 Y66.313 E27.27459
G1 X74.000 Y66.250 E27.27902
G1 X106.000 Y66.250 E27.82888
G1 X106.735 Y66.434 E27.84190
G1 X106.250 Y73.688 F12000.000
G1 X106.250 Y66.313 E27.96862 F1200.000
G1 X106.500 Y66.250 E27.97305
G1 X113.500 Y66.250 E28.09333
G1 X113.707 Y66.293 E28.09697
G1 X113.750 Y66.500 E28.10060
G1 X113.750 Y73.500 E28.22088
G1 X113.707 Y73.707 E28.22452
G1 X113.500 Y73.750 E28.22815
G1 X106.500 Y73.750 E28.34843
G1 X106.323 Y73.706 E28.35157
G1 F1800.000 E27.35157
G92 E0
G1 Z1.600 F12000.000
G1 X106.750 Y73.250 F12000.000
G1 E1.00000 F1800.000
G1 X106.750 Y66.750 E1.18391 F1800.000
G1 X113.250 Y66.750 E1.36782
G1 X113.250 Y73.250 E1.55174
G1 X106.825 Y73.250 E1.73353
G1 X107.250 Y72.750 F12000.000
G1 X107.250 Y67.250 E1.88915 F1260.000
G1 X112.750 Y67.250 E2.04476
G1 X112.750 Y72.750 E2.20038
G1 X107.325 Y72.750 E2.35388
G1 X106.750 Y72.750 F12000.000
G1 X105.750 Y73.250 F12000.000
G1 X74.250 Y73.250 E3.24515 F1800.000
G1 X74.250 Y66.750 E3.42906
G1 X105.750 Y66.750 E4.32033
G1 X105.750 Y73.175 E4.50212
G1 X105.250 Y72.750 F12000.000
G1 X74.750 Y72.750 E5.36509 F1260.000
G1 X74.750 Y67.250 E5.52071
G1 X105.250 Y67.250 E6.38368
G1 X105.250 Y72.675 E6.53718
G1 X105.250 Y73.250 F12000.000
G1 X73.250 Y73.250 F12000.000
G1 X66.750 Y73.250 E6.72109 F1800.000
G1 X66.750 Y66.750 E6.90500
G1 X73.250 Y66.750 E7.08891
G1 X73.250 Y73.175 E7.27070
G1 X72.750 Y72.750 F12000.000
G1 X67.250 Y72.750 E7.42632 F1260.000
G1 X67.250 Y67.250 E7.58194
G1 X72.750 Y67.250 E7.73756
G1 X72.750 Y72.675 E7.89106
G1 X72.750 Y73.250 F12000.000
G1 X73.250 Y74.250 F12000.000
G1 X73.250 Y105.750 E8.78232 F1800.000
G1 X66.750 Y105.750 E8.96624
G1 X66.750 Y74.250 E9.85750
G1 X73.175 Y74.250 E10.03929
G1 X72.750 Y74.750 F12000.000
G1 X72.750 Y105.250 E10.90227 F1260.000
G1 X67.250 Y105.250 E11.05789
G1 X67.250 Y74.750 E11.92086
G1 X72.675 Y74.750 E12.07435
G1 X73.250 Y74.750 F12000.000
G1 X73.250 Y106.750 F12000.000
G1 X73.250 Y113.250 E12.25827 F1800.000
G1 X66.750 Y113.250 E12.44218
G1 X66.750 Y106.750 E12.62609
G1 X73.175 Y106.750 E12.80788
G1 X72.750 Y107.250 F12000.000
G1 X72.750 Y112.750 E12.96350 F1260.000
G1 X67.250 Y112.750 E13.11912
G1 X67.250 Y107.250 E13.27474
G1 X72.675 Y107.250 E13.42823
G1 X73.250 Y107.250 F12000.000
G1 X74.250 Y74.250 F12000.000
G1 X74.250 Y114.250 E14.56000 F1800.000
G1 X65.750 Y114.250 E14.80050
G1 X65.750 Y65.750 E16.17277
G1 X114.250 Y65.750 E17.54504
G1 X114.250 Y74.250 E17.78554
G1 X74.325 Y74.250 E18.91519
G1 X74.750 Y74.750 F12000.000
G1 X74.750 Y114.750 E20.04696 F1260.000
G1 X65.250 Y114.750 E20.31575
G1 X65.250 Y65.250 E21.71632
G1 X114.750 Y65.250 E23.11688
G1 X114.750 Y74.750 E23.38567
G1 X74.825 Y74.750 E24.51532
G1 X74.250 Y74.750 F12000.000
G1 X73.750 Y73.250 F12000.000
G1 X73.750 Y106.000 E25.07807 F1200.000
G1 X73.688 Y106.250 E25.08249
G1 X66.313 Y106.250 E25.20922
G1 X66.250 Y106.500 E25.21365
G1 X66.250 Y113.500 E25.33393
G1 X66.293 Y113.707 E25.33756
G1 X66.500 Y113.750 E25.34120
G1 X73.500 Y113.750 E25.46148
G1 X73.707 Y113.707 E25.46511
G1 X73.750 Y113.500 E25.46875
G1 X73.750 Y106.500 E25.58903
G1 X73.566 Y105.765 E25.60205
G1 X66.434 Y106.735 F12000.000
G1 X66.250 Y106.000 E25.61507 F1200.000
G1 X66.250 Y74.000 E26.16493
G1 X66.313 Y73.750 E26.16936
G1 X74.250 Y73.750 E26.30575
G1 X74.235 Y66.434 F12000.000
G1 X73.500 Y66.250 E26.31877 F1200.000
G1 X66.500 Y66.250 E26.43905
G1 X66.293 Y66.293 E26.44268
G1 X66.250 Y66.500 E26.44632
G1 X66.250 Y73.500 E26.56660
G1 X66.434 Y74.235 E26.57962
G1 X106.735 Y73.566 F12000.000
G1 X106.000 Y73.750 E26.59264 F1200.000
G1 X73.750 Y73.750 E27.14679
G1 X73.750 Y66.313 E27.27459
G1 X74.000 Y66.250 E27.27902
G1 X106.000 Y66.250 E27.82888
G1 X106.735 Y66.434 E27.84190
G1 X106.250 Y73.688 F12000.000
G1 X106.250 Y66.313 E27.96862 F1200.000
G1 X106.500 Y66.250 E27.97305
G1 X113.500 Y66.250 E28.09333
G1 X113.707 Y66.293 E28.09697
G1 X113.750 Y66.500 E28.10060
G1 X113.750 Y73.500 E28.22088
G1 X113.707 Y73.707 E28.22452
G1 X113.500 Y73.750 E28.22815
G1 X106.500 Y73.750 E28.34843
G1 X106.323 Y73.706 E28.35157
G1 F1800.000 E27.35157
G92 E0
G1 Z2.000 F12000.000
G1 X106.750 Y73.250 F12000.000
G1 E1.00000 F1800.000
G1 X106.750 Y66.750 E1.18391 F1800.000
G1 X113.250 Y66.750 E1.36782
G1 X113.250 Y73.250 E1.55174
G1 X106.825 Y73.250 E1.73353
G1 X107.250 Y72.750 F12000.000
G1 X107.250 Y67.250 E1.88915 F1260.000
G1 X112.750 Y67.250 E2.04476
G1 X112.750 Y72.750 E2.20038
G1 X107.325 Y72.750 E2.35388
G1 X106.750 Y72.750 F12000.000
G1 X105.750 Y73.250 F12000.000
G1 X74.250 Y73.250 E3.24515 F1800.000
G1 X74.250 Y66.750 E3.42906
G1 X105.750 Y66.750 E4.32033
G1 X105.750 Y73.175 E4.50212
G1 X105.250 Y72.750 F12000.000
G1 X74.750 Y72.750 E5.36509 F1260.000
G1 X74.750 Y67.250 E5.52071
G1 X105.250 Y67.250 E6.38368
G1 X105.250 Y72.675 E6.53718
G1 X105.250 Y73.250 F12000.000
G1 X73.250 Y73.250 F12000.000
G1 X66.750 Y73.250 E6.72109 F1800.000
G1 X66.750 Y66.750 E6.90500
G1 X73.250 Y66.750 E7.08891
G1 X73.250 Y73.175 E7.27070
G1 X72.750 Y72.750 F12000.000
G1 X67.250 Y72.750 E7.42632 F1260.000
G1 X67.250 Y67.250 E7.58194
G1 X72.750 Y67.250 E7.73756
G1 X72.750 Y72.675 E7.89106
G1 X72.750 Y73.250 F12000.000
G1 X73.250 Y74.250 F12000.000
G1 X73.250 Y105.750 E8.78232 F1800.000
G1 X66.750 Y105.750 E8.96624
G1 X66.750 Y74.250 E9.85750
G1 X73.175 Y74.250 E10.03929
G1 X72.750 Y74.750 F12000.000
G1 X72.750 Y105.250 E10.90227 F1260.000
G1 X67.250 Y105.250 E11.05789
G1 X67.250 Y74.750 E11.92086
G1 X72.675 Y74.750 E12.07435
G1 X73.250 Y74.750 F12000.000
G1 X73.250 Y106.750 F12000.000
G1 X73.250 Y113.250 E12.25827 F1800.000
G1 X66.750 Y113.250 E12.44218
G1 X66.750 Y106.750 E12.62609
G1 X73.175 Y106.750 E12.80788
G1 X72.750 Y107.250 F12000.000
G1 X72.750 Y112.750 E12.96350 F1260.000
G1 X67.250 Y112.750 E13.11912
G1 X67.250 Y107.250 E13.27474
G1 X72.675 Y107.250 E13.42823
G1 X73.250 Y107.250 F12000.000
G1 X74.250 Y74.250 F12000.000
G1 X74.250 Y114.250 E14.56000 F1800.000
G1 X65.750 Y114.250 E14.80050
G1 X65.750 Y65.750 E16.17277
G1 X114.250 Y65.750 E17.54504
G1 X114.250 Y74.250 E17.78554
G1 X74.325 Y74.250 E18.91519
G1 X74.750 Y74.750 F12000.000
G1 X74.750 Y114.750 E20.04696 F1260.000
G1 X65.250 Y114.750 E20.31575
G1 X65.250 Y65.250 E21.71632
G1 X114.750 Y65.250 E23.11688
G1 X114.750 Y74.750 E23.38567
G1 X74.825 Y74.750 E24.51532
G1 X74.250 Y74.750 F12000.000
G1 X73.750 Y73.250 F12000.000
G1 X73.750 Y106.000 E25.07807 F1200.000
G1 X73.688 Y106.250 E25.08249
G1 X66.313 Y106.250 E25.20922
G1 X66.250 Y106.500 E25.21365
G1 X66.250 Y113.500 E25.33393
G1 X66.293 Y113.707 E25.33756
G1 X66.500 Y113.750 E25.34120
G1 X73.500 Y113.750 E25.46148
G1 X73.707 Y113.707 E25.46511
G1 X73.750 Y113.500 E25.46875
G1 X73.750 Y106.500 E25.58903
G1 X73.566 Y105.765 E25.60205
G1 X66.434 Y106.735 F12000.000
G1 X66.250 Y106.000 E25.61507 F1200.000
G1 X66.250 Y74.000 E26.16493
G1 X66.313 Y73.750 E26.16936
G1 X74.250 Y73.750 E26.30575
G1 X74.235 Y66.434 F12000.000
G1 X73.500 Y66.250 E26.31877 F1200.000
G1 X66.500 Y66.250 E26.43905
G1 X66.293 Y66.293 E26.44268
G1 X66.250 Y66.500 E26.44632
G1 X66.250 Y73.500 E26.56660
G1 X66.434 Y74.235 E26.57962
G1 X106.735 Y73.566 F12000.000
G1 X106.000 Y73.750 E26.59264 F1200.000
G1 X73.750 Y73.750 E27.14679
G1 X73.750 Y66.313 E27.27459
G1 X74.000 Y66.250 E27.27902
G1 X106.000 Y66.250 E27.82888
G1 X106.735 Y66.434 E27.84190
G1 X106.250 Y73.688 F12000.000
G1 X106.250 Y66.313 E27.96862 F1200.000
G1 X106.500 Y66.250 E27.97305
G1 X113.500 Y66.250 E28.09333
G1 X113.707 Y66.293 E28.09697
G1 X113.750 Y66.500 E28.10060
G1 X113.750 Y73.500 E28.22088
G1 X113.707 Y73.707 E28.22452
G1 X113.500 Y73.750 E28.22815
G1 X106.500 Y73.750 E28.34843
G1 X106.323 Y73.706 E28.35157
G1 F1800.000 E27.35157
G92 E0
G1 Z2.400 F12000.000
G1 X106.750 Y73.250 F12000.000
G1 E1.00000 F1800.000
G1 X106.750 Y66.750 E1.18391 F1800.000
G1 X113.250 Y66.750 E1.36782
G1 X113.250 Y73.250 E1.55174
G1 X106.825 Y73.250 E1.73353
G1 X107.250 Y72.750 F12000.000
G1 X107.250 Y67.250 E1.88915 F1260.000
G1 X112.750 Y67.250 E2.04476
G1 X112.750 Y72.750 E2.20038
G1 X107.325 Y72.750 E2.35388
G1 X106.750 Y72.750 F12000.000
G1 X105.750 Y73.250 F12000.000
G1 X74.250 Y73.250 E3.24515 F1800.000
G1 X74.250 Y66.750 E3.42906
G1 X105.750 Y66.750 E4.32033
G1 X105.750 Y73.175 E4.50212
G1 X105.250 Y72.750 F12000.000
G1 X74.750 Y72.750 E5.36509 F1260.000
G1 X74.750 Y67.250 E5.52071
G1 X105.250 Y67.250 E6.38368
G1 X105.250 Y72.675 E6.53718
G1 X105.250 Y73.250 F12000.000
G1 X73.250 Y73.250 F12000.000
G1 X66.750 Y73.250 E6.72109 F1800.000
G1 X66.750 Y66.750 E6.90500
G1 X73.250 Y66.750 E7.08891
G1 X73.250 Y73.175 E7.27070
G1 X72.750 Y72.750 F12000.000
G1 X67.250 Y72.750 E7.42632 F1260.000
G1 X67.250 Y67.250 E7.58194
G1 X72.750 Y67.250 E7.73756
G1 X72.750 Y72.675 E7.89106
G1 X72.750 Y73.250 F12000.000
G1 X73.250 Y74.250 F12000.000
G1 X73.250 Y105.750 E8.78232 F1800.000
G1 X66.750 Y105.750 E8.96624
G1 X66.750 Y74.250 E9.85750
G1 X73.175 Y74.250 E10.03929
G1 X72.750 Y74.750 F12000.000
G1 X72.750 Y105.250 E10.90227 F1260.000
G1 X67.250 Y105.250 E11.05789
G1 X67.250 Y74.750 E11.92086
G1 X72.675 Y74.750 E12.07435
G1 X73.250 Y74.750 F12000.000
G1 X73.250 Y106.750 F12000.000
G1 X73.250 Y113.250 E12.25827 F1800.000
G1 X66.750 Y113.250 E12.44218
G1 X66.750 Y106.750 E12.62609
G1 X73.175 Y106.750 E12.80788
G1 X72.750 Y107.250 F12000.000
G1 X72.750 Y112.750 E12.96350 F1260.000
G1 X67.250 Y112.750 E13.11912
G1 X67.250 Y107.250 E13.27474
G1 X72.675 Y107.250 E13.42823
G1 X73.250 Y107.250 F12000.000
G1 X74.250 Y74.250 F12000.000
G1 X74.250 Y114.250 E14.56000 F1800.000
G1 X65.750 Y114.250 E14.80050
G1 X65.750 Y65.750 E16.17277
G1 X114.250 Y65.750 E17.54504
G1 X114.250 Y74.250 E17.78554
G1 X74.325 Y74.250 E18.91519
G1 X74.750 Y74.750 F12000.000
G1 X74.750 Y114.750 E20.04696 F1260.000
G1 X65.250 Y114.750 E20.31575
G1 X65.250 Y65.250 E21.71632
G1 X114.750 Y65.250 E23.11688
G1 X114.750 Y74.750 E23.38567
G1 X74.825 Y74.750 E24.51532
G1 X74.250 Y74.750 F12000.000
G1 X73.750 Y73.250 F12000.000
G1 X73.750 Y106.000 E25.07807 F1200.000
G1 X73.688 Y106.250 E25.08249
G1 X66.313 Y106.250 E25.20922
G1 X66.250 Y106.500 E25.21365
G1 X66.250 Y113.500 E25.33393
G1 X66.293 Y113.707 E25.33756
G1 X66.500 Y113.750 E25.34120
G1 X73.500 Y113.750 E25.46148
G1 X73.707 Y113.707 E25.46511
G1 X73.750 Y113.500 E25.46875
G1 X73.750 Y106.500 E25.58903
G1 X73.566 Y105.765 E25.60205
G1 X66.434 Y106.735 F12000.000
G1 X66.250 Y106.000 E25.61507 F1200.000
G1 X66.250 Y74.000 E26.16493
G1 X66.313 Y73.750 E26.16936
G1 X74.250 Y73.750 E26.30575
G1 X74.235 Y66.434 F12000.000
G1 X73.500 Y66.250 E26.31877 F1200.000
G1 X66.500 Y66.250 E26.43905
G1 X66.293 Y66.293 E26.44268
G1 X66.250 Y66.500 E26.44632
G1 X66.250 Y73.500 E26.56660
G1 X66.434 Y74.235 E26.57962
G1 X106.735 Y73.566 F12000.000
G1 X106.000 Y73.750 E26.59264 F1200.000
G1 X73.750 Y73.750 E27.14679
G1 X73.750 Y66.313 E27.27459
G1 X74.000 Y66.250 E27.27902
G1 X106.000 Y66.250 E27.82888
G1 X106.735 Y66.434 E27.84190
G1 X106.250 Y73.688 F12000.000
G1 X106.250 Y66.313 E27.96862 F1200.000
G1 X106.500 Y66.250 E27.97305
G1 X113.500 Y66.250 E28.09333
G1 X113.707 Y66.293 E28.09697
G1 X113.750 Y66.500 E28.10060
G1 X113.750 Y73.500 E28.22088
G1 X113.707 Y73.707 E28.22452
G1 X113.500 Y73.750 E28.22815
G1 X106.500 Y73.750 E28.34843
G1 X106.323 Y73.706 E28.35157
G1 F1800.000 E27.35157
G92 E0
G1 Z2.800 F12000.000
G1 X106.750 Y73.250 F12000.000
G1 E1.00000 F1800.000
G1 X106.750 Y66.750 E1.18391 F1800.000
G1 X113.250 Y66.750 E1.36782
G1 X113.250 Y73.250 E1.55174
G1 X106.825 Y73.250 E1.73353
G1 X107.250 Y72.750 F12000.000
G1 X107.250 Y67.250 E1.88915 F1260.000
G1 X112.750 Y67.250 E2.04476
G1 X112.750 Y72.750 E2.20038
G1 X107.325 Y72.750 E2.35388
G1 X106.750 Y72.750 F12000.000
G1 X105.750 Y73.250 F12000.000
G1 X74.250 Y73.250 E3.24515 F1800.000
G1 X74.250 Y66.750 E3.42906
G1 X105.750 Y66.750 E4.32033
G1 X105.750 Y73.175 E4.50212
G1 X105.250 Y72.750 F12000.000
G1 X74.750 Y72.750 E5.36509 F1260.000
G1 X74.750 Y67.250 E5.52071
G1 X105.250 Y67.250 E6.38368
G1 X105.250 Y72.675 E6.53718
G1 X105.250 Y73.250 F12000.000
G1 X73.250 Y73.250 F12000.000
G1 X66.750 Y73.250 E6.72109 F1800.000
G1 X66.750 Y66.750 E6.90500
G1 X73.250 Y66.750 E7.08891
G1 X73.250 Y73.175 E7.27070
G1 X72.750 Y72.750 F12000.000
G1 X67.250 Y72.750 E7.42632 F1260.000
G1 X67.250 Y67.250 E7.58194
G1 X72.750 Y67.250 E7.73756
G1 X72.750 Y72.675 E7.89106
G1 X72.750 Y73.250 F12000.000
G1 X73.250 Y74.250 F12000.000
G1 X73.250 Y105.750 E8.78232 F1800.000
G1 X66.750 Y105.750 E8.96624
G1 X66.750 Y74.250 E9.85750
G1 X73.175 Y74.250 E10.03929
G1 X72.750 Y74.750 F12000.000
G1 X72.750 Y105.250 E10.90227 F1260.000
G1 X67.250 Y105.250 E11.05789
G1 X67.250 Y74.750 E11.92086
G1 X72.675 Y74.750 E12.07435
G1 X73.250 Y74.750 F12000.000
G1 X73.250 Y106.750 F12000.000
G1 X73.250 Y113.250 E12.25827 F1800.000
G1 X66.750 Y113.250 E12.44218
G1 X66.750 Y106.750 E12.62609
G1 X73.175 Y106.750 E12.80788
G1 X72.750 Y107.250 F12000.000
G1 X72.750 Y112.750 E12.96350 F1260.000
G1 X67.250 Y112.750 E13.11912
G1 X67.250 Y107.250 E13.27474
G1 X72.675 Y107.250 E13.42823
G1 X73.250 Y107.250 F12000.000
G1 X74.250 Y74.250 F12000.000
G1 X74.250 Y114.250 E14.56000 F1800.000
G1 X65.750 Y114.250 E14.80050
G1 X65.750 Y65.750 E16.17277
G1 X114.250 Y65.750 E17.54504
G1 X114.250 Y74.250 E17.78554
G1 X74.325 Y74.250 E18.91519
G1 X74.750 Y74.750 F12000.000
G1 X74.750 Y114.750 E20.04696 F1260.000
G1 X65.250 Y114.750 E20.31575
G1 X65.250 Y65.250 E21.71632
G1 X114.750 Y65.250 E23.11688
G1 X114.750 Y74.750 E23.38567
G1 X74.825 Y74.750 E24.51532
G1 X74.250 Y74.750 F12000.000
G1 X73.750 Y73.250 F12000.000
G1 X73.750 Y106.000 E25.07807 F1200.000
G1 X73.688 Y106.250 E25.08249
G1 X66.313 Y106.250 E25.20922
G1 X66.250 Y106.500 E25.21365
G1 X66.250 Y113.500 E25.33393
G1 X66.293 Y113.707 E25.33756
G1 X66.500 Y113.750 E25.34120
G1 X73.500 Y113.750 E25.46148
G1 X73.707 Y113.707 E25.46511
G1 X73.750 Y113.500 E25.46875
G1 X73.750 Y106.500 E25.58903
G1 X73.566 Y105.765 E25.60205
G1 X66.434 Y106.735 F12000.000
G1 X66.250 Y106.000 E25.61507 F1200.000
G1 X66.250 Y74.000 E26.16493
G1 X66.313 Y73.750 E26.16936
G1 X74.250 Y73.750 E26.30575
G1 X74.235 Y66.434 F12000.000
G1 X73.500 Y66.250 E26.31877 F1200.000
G1 X66.500 Y66.250 E26.43905
G1 X66.293 Y66.293 E26.44268
G1 X66.250 Y66.500 E26.44632
G1 X66.250 Y73.500 E26.56660
G1 X66.434 Y74.235 E26.57962
G1 X106.735 Y73.566 F12000.000
G1 X106.000 Y73.750 E26.59264 F1200.000
G1 X73.750 Y73.750 E27.14679
G1 X73.750 Y66.313 E27.27459
G1 X74.000 Y66.250 E27.27902
G1 X106.000 Y66.250 E27.82888
G1 X106.735 Y66.434 E27.84190
G1 X106.250 Y73.688 F12000.000
G1 X106.250 Y66.313 E27.96862 F1200.000
G1 X106.500 Y66.250 E27.97305
G1 X113.500 Y66.250 E28.09333
G1 X113.707 Y66.293 E28.09697
G1 X113.750 Y66.500 E28.10060
G1 X113.750 Y73.500 E28.22088
G1 X113.707 Y73.707 E28.22452
G1 X113.500 Y73.750 E28.22815
G1 X106.500 Y73.750 E28.34843
G1 X106.323 Y73.706 E28.35157
G1 F1800.000 E27.35157
G92 E0
G1 Z3.200 F12000.000
G1 X106.750 Y73.250 F12000.000
G1 E1.00000 F1800.000
G1 X106.750 Y66.750 E1.18391 F1800.000
G1 X113.250 Y66.750 E1.36782
G1 X113.250 Y73.250 E1.55174
G1 X106.825 Y73.250 E1.73353
G1 X107.250 Y72.750 F12000.000
G1 X107.250 Y67.250 E1.88915 F1260.000
G1 X112.750 Y67.250 E2.04476
G1 X112.750 Y72.750 E2.20038
G1 X107.325 Y72.750 E2.35388
G1 X106.750 Y72.750 F12000.000
G1 X105.750 Y73.250 F12000.000
G1 X74.250 Y73.250 E3.24515 F1800.000
G1 X74.250 Y66.750 E3.42906
G1 X105.750 Y66.750 E4.32033
G1 X105.750 Y73.175 E4.50212
G1 X105.250 Y72.750 F12000.000
G1 X74.750 Y72.750 E5.36509 F1260.000
G1 X74.750 Y67.250 E5.52071
G1 X105.250 Y67.250 E6.38368
G1 X105.250 Y72.675 E6.53718
G1 X105.250 Y73.250 F12000.000
G1 X73.250 Y73.250 F12000.000
G1 X66.750 Y73.250 E6.72109 F1800.000
G1 X66.750 Y66.750 E6.90500
G1 X73.250 Y66.750 E7.08891
G1 X73.250 Y73.175 E7.27070
G1 X72.750 Y72.750 F12000.000
G1 X67.250 Y72.750 E7.42632 F1260.000
G1 X67.250 Y67.250 E7.58194
G1 X72.750 Y67.250 E7.73756
G1 X72.750 Y72.675 E7.89106
G1 X72.750 Y73.250 F12000.000
G1 X73.250 Y74.250 F12000.000
G1 X73.250 Y105.750 E8.78232 F1800.000
G1 X66.750 Y105.750 E8.96624
G1 X66.750 Y74.250 E9.85750
G1 X73.175 Y74.250 E10.03929
G1 X72.750 Y74.750 F12000.000
G1 X72.750 Y105.250 E10.90227 F1260.000
G1 X67.250 Y105.250 E11.05789
G1 X67.250 Y74.750 E11.92086
G1 X72.675 Y74.750 E12.07435
G1 X73.250 Y74.750 F12000.000
G1 X73.250 Y106.750 F12000.000
G1 X73.250 Y113.250 E12.25827 F1800.000
G1 X66.750 Y113.250 E12.44218
G1 X66.750 Y106.750 E12.62609
G1 X73.175 Y106.750 E12.80788
G1 X72.750 Y107.250 F12000.000
G1 X72.750 Y112.750 E12.96350 F1260.000
G1 X67.250 Y112.750 E13.11912
G1 X67.250 Y107.250 E13.27474
G1 X72.675 Y107.250 E13.42823
G1 X73.250 Y107.250 F12000.000
G1 X74.250 Y74.250 F12000.000
G1 X74.250 Y114.250 E14.56000 F1800.000
G1 X65.750 Y114.250 E14.80050
G1 X65.750 Y65.750 E16.17277
G1 X114.250 Y65.750 E17.54504
G1 X114.250 Y74.250 E17.78554
G1 X74.325 Y74.250 E18.91519
G1 X74.750 Y74.750 F12000.000
G1 X74.750 Y114.750 E20.04696 F1260.000
G1 X65.250 Y114.750 E20.31575
G1 X65.250 Y65.250 E21.71632
G1 X114.750 Y65.250 E23.11688
G1 X114.750 Y74.750 E23.38567
G1 X74.825 Y74.750 E24.51532
G1 X74.250 Y74.750 F12000.000
G1 X73.750 Y73.250 F12000.000
G1 X73.750 Y106.000 E25.07807 F1200.000
G1 X73.688 Y106.250 E25.08249
G1 X66.313 Y106.250 E25.20922
G1 X66.250 Y106.500 E25.21365
G1 X66.250 Y113.500 E25.33393
G1 X66.293 Y113.707 E25.33756
G1 X66.500 Y113.750 E25.34120
G1 X73.500 Y113.750 E25.46148
G1 X73.707 Y113.707 E25.46511
G1 X73.750 Y113.500 E25.46875
G1 X73.750 Y106.500 E25.58903
G1 X73.566 Y105.765 E25.60205
G1 X66.434 Y106.735 F12000.000
G1 X66.250 Y106.000 E25.61507 F1200.000
G1 X66.250 Y74.000 E26.16493
G1 X66.313 Y73.750 E26.16936
G1 X74.250 Y73.750 E26.30575
G1 X74.235 Y66.434 F12000.000
G1 X73.500 Y66.250 E26.31877 F1200.000
G1 X66.500 Y66.250 E26.43905
G1 X66.293 Y66.293 E26.44268
G1 X66.250 Y66.500 E26.44632
G1 X66.250 Y73.500 E26.56660
G1 X66.434 Y74.235 E26.57962
G1 X106.735 Y73.566 F12000.000
G1 X106.000 Y73.750 E26.59264 F1200.000
G1 X73.750 Y73.750 E27.14679
G1 X73.750 Y66.313 E27.27459
G1 X74.000 Y66.250 E27.27902
G1 X106.000 Y66.250 E27.82888
G1 X106.735 Y66.434 E27.84190
G1 X106.250 Y73.688 F12000.000
G1 X106.250 Y66.313 E27.96862 F1200.000
G1 X106.500 Y66.250 E27.97305
G1 X113.500 Y66.250 E28.09333
G1 X113.707 Y66.293 E28.09697
G1 X113.750 Y66.500 E28.10060
G1 X113.750 Y73.500 E28.22088
G1 X113.707 Y73.707 E28.22452
G1 X113.500 Y73.750 E28.22815
G1 X106.500 Y73.750 E28.34843
G1 X106.323 Y73.706 E28.35157
G1 F1800.000 E27.35157
G92 E0
G1 Z3.600 F12000.000
G1 X106.750 Y73.250 F12000.000
G1 E1.00000 F1800.000
G1 X106.750 Y66.750 E1.18391 F1800.000
G1 X113.250 Y66.750 E1.36782
G1 X113.250 Y73.250 E1.55174
G1 X106.825 Y73.250 E1.73353
G1 X107.250 Y72.750 F12000.000
G1 X107.250 Y67.250 E1.88915 F1260.000
G1 X112.750 Y67.250 E2.04476
G1 X112.750 Y72.750 E2.20038
G1 X107.325 Y72.750 E2.35388
G1 X106.750 Y72.750 F12000.000
G1 X105.750 Y73.250 F12000.000
G1 X74.250 Y73.250 E3.24515 F1800.000
G1 X74.250 Y66.750 E3.42906
G1 X105.750 Y66.750 E4.32033
G1 X105.750 Y73.175 E4.50212
G1 X105.250 Y72.750 F12000.000
G1 X74.750 Y72.750 E5.36509 F1260.000
G1 X74.750 Y67.250 E5.52071
G1 X105.250 Y67.250 E6.38368
G1 X105.250 Y72.675 E6.53718
G1 X105.250 Y73.250 F12000.000
G1 X73.250 Y73.250 F12000.000
G1 X66.750 Y73.250 E6.72109 F1800.000
G1 X66.750 Y66.750 E6.90500
G1 X73.250 Y66.750 E7.08891
G1 X73.250 Y73.175 E7.27070
G1 X72.750 Y72.750 F12000.000
G1 X67.250 Y72.750 E7.42632 F1260.000
G1 X67.250 Y67.250 E7.58194
G1 X72.750 Y67.250 E7.73756
G1 X72.750 Y72.675 E7.89106
G1 X72.750 Y73.250 F12000.000
G1 X73.250 Y74.250 F12000.000
G1 X73.250 Y105.750 E8.78232 F1800.000
G1 X66.750 Y105.750 E8.96624
G1 X66.750 Y74.250 E9.85750
G1 X73.175 Y74.250 E10.03929
G1 X72.750 Y74.750 F12000.000
G1 X72.750 Y105.250 E10.90227 F1260.000
G1 X67.250 Y105.250 E11.05789
G1 X67.250 Y74.750 E11.92086
G1 X72.675 Y74.750 E12.07435
G1 X73.250 Y74.750 F12000.000
G1 X73.250 Y106.750 F12000.000
G1 X73.250 Y113.250 E12.25827 F1800.000
G1 X66.750 Y113.250 E12.44218
G1 X66.750 Y106.750 E12.62609
G1 X73.175 Y106.750 E12.80788
G1 X72.750 Y107.250 F12000.000
G1 X72.750 Y112.750 E12.96350 F1260.000
G1 X67.250 Y112.750 E13.11912
G1 X67.250 Y107.250 E13.27474
G1 X72.675 Y107.250 E13.42823
G1 X73.250 Y107.250 F12000.000
G1 X74.250 Y74.250 F12000.000
G1 X74.250 Y114.250 E14.56000 F1800.000
G1 X65.750 Y114.250 E14.80050
G1 X65.750 Y65.750 E16.17277
G1 X114.250 Y65.750 E17.54504
G1 X114.250 Y74.250 E17.78554
G1 X74.325 Y74.250 E18.91519
G1 X74.750 Y74.750 F12000.000
G1 X74.750 Y114.750 E20.04696 F1260.000
G1 X65.250 Y114.750 E20.31575
G1 X65.250 Y65.250 E21.71632
G1 X114.750 Y65.250 E23.11688
G1 X114.750 Y74.750 E23.38567
G1 X74.825 Y74.750 E24.51532
G1 X74.250 Y74.750 F12000.000
G1 X73.750 Y73.250 F12000.000
G1 X73.750 Y106.000 E25.07807 F1200.000
G1 X73.688 Y106.250 E25.08249
G1 X66.313 Y106.250 E25.20922
G1 X66.250 Y106.500 E25.21365
G1 X66.250 Y113.500 E25.33393
G1 X66.293 Y113.707 E25.33756
G1 X66.500 Y113.750 E25.34120
G1 X73.500 Y113.750 E25.46148
G1 X73.707 Y113.707 E25.46511
G1 X73.750 Y113.500 E25.46875
G1 X73.750 Y106.500 E25.58903
G1 X73.566 Y105.765 E25.60205
G1 X66.434 Y106.735 F12000.000
G1 X66.250 Y106.000 E25.61507 F1200.000
G1 X66.250 Y74.000 E26.16493
G1 X66.313 Y73.750 E26.16936
G1 X74.250 Y73.750 E26.30575
G1 X74.235 Y66.434 F12000.000
G1 X73.500 Y66.250 E26.31877 F1200.000
G1 X66.500 Y66.250 E26.43905
G1 X66.293 Y66.293 E26.44268
G1 X66.250 Y66.500 E26.44632
G1 X66.250 Y73.500 E26.56660
G1 X66.434 Y74.235 E26.57962
G1 X106.735 Y73.566 F12000.000
G1 X106.000 Y73.750 E26.59264 F1200.000
G1 X73.750 Y73.750 E27.14679
G1 X73.750 Y66.313 E27.27459
G1 X74.000 Y66.250 E27.27902
G1 X106.000 Y66.250 E27.82888
G1 X106.735 Y66.434 E27.84190
G1 X106.250 Y73.688 F12000.000
G1 X106.250 Y66.313 E27.96862 F1200.000
G1 X106.500 Y66.250 E27.97305
G1 X113.500 Y66.250 E28.09333
G1 X113.707 Y66.293 E28.09697
G1 X113.750 Y66.500 E28.10060
G1 X113.750 Y73.500 E28.22088
G1 X113.707 Y73.707 E28.22452
G1 X113.500 Y73.750 E28.22815
G1 X106.500 Y73.750 E28.34843
G1 X106.323 Y73.706 E28.35157
G1 F1800.000 E27.35157
G92 E0
G1 Z4.000 F12000.000
G1 X106.750 Y73.250 F12000.000
G1 E1.00000 F1800.000
G1 X106.750 Y66.750 E1.18391 F1800.000
G1 X113.250 Y66.750 E1.36782
G1 X113.250 Y73.250 E1.55174
G1 X106.825 Y73.250 E1.73353
G1 X107.250 Y72.750 F12000.000
G1 X107.250 Y67.250 E1.88915 F1260.000
G1 X112.750 Y67.250 E2.04476
G1 X112.750 Y72.750 E2.20038
G1 X107.325 Y72.750 E2.35388
G1 X106.750 Y72.750 F12000.000
G1 X105.750 Y73.250 F12000.000
G1 X74.250 Y73.250 E3.24515 F1800.000
G1 X74.250 Y66.750 E3.42906
G1 X105.750 Y66.750 E4.32033
G1 X105.750 Y73.175 E4.50212
G1 X105.250 Y72.750 F12000.000
G1 X74.750 Y72.750 E5.36509 F1260.000
G1 X74.750 Y67.250 E5.52071
G1 X105.250 Y67.250 E6.38368
G1 X105.250 Y72.675 E6.53718
G1 X105.250 Y73.250 F12000.000
G1 X73.250 Y73.250 F12000.000
G1 X66.750 Y73.250 E6.72109 F1800.000
G1 X66.750 Y66.750 E6.90500
G1 X73.250 Y66.750 E7.08891
G1 X73.250 Y73.175 E7.27070
G1 X72.750 Y72.750 F12000.000
G1 X67.250 Y72.750 E7.42632 F1260.000
G1 X67.250 Y67.250 E7.58194
G1 X72.750 Y67.250 E7.73756
G1 X72.750 Y72.675 E7.89106
G1 X72.750 Y73.250 F12000.000
G1 X73.250 Y74.250 F12000.000
G1 X73.250 Y105.750 E8.78232 F1800.000
G1 X66.750 Y105.750 E8.96624
G1 X66.750 Y74.250 E9.85750
G1 X73.175 Y74.250 E10.03929
G1 X72.750 Y74.750 F12000.000
G1 X72.750 Y105.250 E10.90227 F1260.000
G1 X67.250 Y105.250 E11.05789
G1 X67.250 Y74.750 E11.92086
G1 X72.675 Y74.750 E12.07435
G1 X73.250 Y74.750 F12000.000
G1 X73.250 Y106.750 F12000.000
G1 X73.250 Y113.250 E12.25827 F1800.000
G1 X66.750 Y113.250 E12.44218
G1 X66.750 Y106.750 E12.62609
G1 X73.175 Y106.750 E12.80788
G1 X72.750 Y107.250 F12000.000
G1 X72.750 Y112.750 E12.96350 F1260.000
G1 X67.250 Y112.750 E13.11912
G1 X67.250 Y107.250 E13.27474
G1 X72.675 Y107.250 E13.42823
G1 X73.250 Y107.250 F12000.000
G1 X74.250 Y74.250 F12000.000
G1 X74.250 Y114.250 E14.56000 F1800.000
G1 X65.750 Y114.250 E14.80050
G1 X65.750 Y65.750 E16.17277
G1 X114.250 Y65.750 E17.54504
G1 X114.250 Y74.250 E17.78554
G1 X74.325 Y74.250 E18.91519
G1 X74.750 Y74.750 F12000.000
G1 X74.750 Y114.750 E20.04696 F1260.000
G1 X65.250 Y114.750 E20.31575
G1 X65.250 Y65.250 E21.71632
G1 X114.750 Y65.250 E23.11688
G1 X114.750 Y74.750 E23.38567
G1 X74.825 Y74.750 E24.51532
G1 X74.250 Y74.750 F12000.000
G1 X73.750 Y73.250 F12000.000
G1 X73.750 Y106.000 E25.07807 F1200.000
G1 X73.688 Y106.250 E25.08249
G1 X66.313 Y106.250 E25.20922
G1 X66.250 Y106.500 E25.21365
G1 X66.250 Y113.500 E25.33393
G1 X66.293 Y113.707 E25.33756
G1 X66.500 Y113.750 E25.34120
G1 X73.500 Y113.750 E25.46148
G1 X73.707 Y113.707 E25.46511
G1 X73.750 Y113.500 E25.46875
G1 X73.750 Y106.500 E25.58903
G1 X73.566 Y105.765 E25.60205
G1 X66.434 Y106.735 F12000.000
G1 X66.250 Y106.000 E25.61507 F1200.000
G1 X66.250 Y74.000 E26.16493
G1 X66.313 Y73.750 E26.16936
G1 X74.250 Y73.750 E26.30575
G1 X74.235 Y66.434 F12000.000
G1 X73.500 Y66.250 E26.31877 F1200.000
G1 X66.500 Y66.250 E26.43905
G1 X66.293 Y66.293 E26.44268
G1 X66.250 Y66.500 E26.44632
G1 X66.250 Y73.500 E26.56660
G1 X66.434 Y74.235 E26.57962
G1 X106.735 Y73.566 F12000.000
G1 X106.000 Y73.750 E26.59264 F1200.000
G1 X73.750 Y73.750 E27.14679
G1 X73.750 Y66.313 E27.27459
G1 X74.000 Y66.250 E27.27902
G1 X106.000 Y66.250 E27.82888
G1 X106.735 Y66.434 E27.84190
G1 X106.250 Y73.688 F12000.000
G1 X106.250 Y66.313 E27.96862 F1200.000
G1 X106.500 Y66.250 E27.97305
G1 X113.500 Y66.250 E28.09333
G1 X113.707 Y66.293 E28.09697
G1 X113.750 Y66.500 E28.10060
G1 X113.750 Y73.500 E28.22088
G1 X113.707 Y73.707 E28.22452
G1 X113.500 Y73.750 E28.22815
G1 X106.500 Y73.750 E28.34843
G1 X106.323 Y73.706 E28.35157
G1 F1800.000 E27.35157
G92 E0
G1 Z4.400 F12000.000
G1 X106.750 Y73.250 F12000.000
G1 E1.00000 F1800.000
G1 X106.750 Y66.750 E1.18391 F1800.000
G1 X113.250 Y66.750 E1.36782
G1 X113.250 Y73.250 E1.55174
G1 X106.825 Y73.250 E1.73353
G1 X107.250 Y72.750 F12000.000
G1 X107.250 Y67.250 E1.88915 F1260.000
G1 X112.750 Y67.250 E2.04476
G1 X112.750 Y72.750 E2.20038
G1 X107.325 Y72.750 E2.35388
G1 X106.750 Y72.750 F12000.000
G1 X105.750 Y73.250 F12000.000
G1 X74.250 Y73.250 E3.24515 F1800.000
G1 X74.250 Y66.750 E3.42906
G1 X105.750 Y66.750 E4.32033
G1 X105.750 Y73.175 E4.50212
G1 X105.250 Y72.750 F12000.000
G1 X74.750 Y72.750 E5.36509 F1260.000
G1 X74.750 Y67.250 E5.52071
G1 X105.250 Y67.250 E6.38368
G1 X105.250 Y72.675 E6.53718
G1 X105.250 Y73.250 F12000.000
G1 X73.250 Y73.250 F12000.000
G1 X66.750 Y73.250 E6.72109 F1800.000
G1 X66.750 Y66.750 E6.90500
G1 X73.250 Y66.750 E7.08891
G1 X73.250 Y73.175 E7.27070
G1 X72.750 Y72.750 F12000.000
G1 X67.250 Y72.750 E7.42632 F1260.000
G1 X67.250 Y67.250 E7.58194
G1 X72.750 Y67.250 E7.73756
G1 X72.750 Y72.675 E7.89106
G1 X72.750 Y73.250 F12000.000
G1 X73.250 Y74.250 F12000.000
G1 X73.250 Y105.750 E8.78232 F1800.000
G1 X66.750 Y105.750 E8.96624
G1 X66.750 Y74.250 E9.85750
G1 X73.175 Y74.250 E10.03929
G1 X72.750 Y74.750 F12000.000
G1 X72.750 Y105.250 E10.90227 F1260.000
G1 X67.250 Y105.250 E11.05789
G1 X67.250 Y74.750 E11.92086
G1 X72.675 Y74.750 E12.07435
G1 X73.250 Y74.750 F12000.000
G1 X73.250 Y106.750 F12000.000
G1 X73.250 Y113.250 E12.25827 F1800.000
G1 X66.750 Y113.250 E12.44218
G1 X66.750 Y106.750 E12.62609
G1 X73.175 Y106.750 E12.80788
G1 X72.750 Y107.250 F12000.000
G1 X72.750 Y112.750 E12.96350 F1260.000
G1 X67.250 Y112.750 E13.11912
G1 X67.250 Y107.250 E13.27474
G1 X72.675 Y107.250 E13.42823
G1 X73.250 Y107.250 F12000.000
G1 X74.250 Y74.250 F12000.000
G1 X74.250 Y114.250 E14.56000 F1800.000
G1 X65.750 Y114.250 E14.80050
G1 X65.750 Y65.750 E16.17277
G1 X114.250 Y65.750 E17.54504
G1 X114.250 Y74.250 E17.78554
G1 X74.325 Y74.250 E18.91519
G1 X74.750 Y74.750 F12000.000
G1 X74.750 Y114.750 E20.04696 F1260.000
G1 X65.250 Y114.750 E20.31575
G1 X65.250 Y65.250 E21.71632
G1 X114.750 Y65.250 E23.11688
G1 X114.750 Y74.750 E23.38567
G1 X74.825 Y74.750 E24.51532
G1 X74.250 Y74.750 F12000.000
G1 X73.750 Y73.250 F12000.000
G1 X73.750 Y106.000 E25.07807 F1200.000
G1 X73.688 Y106.250 E25.08249
G1 X66.313 Y106.250 E25.20922
G1 X66.250 Y106.500 E25.21365
G1 X66.250 Y113.500 E25.33393
G1 X66.293 Y113.707 E25.33756
G1 X66.500 Y113.750 E25.34120
G1 X73.500 Y113.750 E25.46148
G1 X73.707 Y113.707 E25.46511
G1 X73.750 Y113.500 E25.46875
G1 X73.750 Y106.500 E25.58903
G1 X73.566 Y105.765 E25.60205
G1 X66.434 Y106.735 F12000.000
G1 X66.250 Y106.000 E25.61507 F1200.000
G1 X66.250 Y74.000 E26.16493
G1 X66.313 Y73.750 E26.16936
G1 X74.250 Y73.750 E26.30575
G1 X74.235 Y66.434 F12000.000
G1 X73.500 Y66.250 E26.31877 F1200.000
G1 X66.500 Y66.250 E26.43905
G1 X66.293 Y66.293 E26.44268
G1 X66.250 Y66.500 E26.44632
G1 X66.250 Y73.500 E26.56660
G1 X66.434 Y74.235 E26.57962
G1 X106.735 Y73.566 F12000.000
G1 X106.000 Y73.750 E26.59264 F1200.000
G1 X73.750 Y73.750 E27.14679
G1 X73.750 Y66.313 E27.27459
G1 X74.000 Y66.250 E27.27902
G1 X106.000 Y66.250 E27.82888
G1 X106.735 Y66.434 E27.84190
G1 X106.250 Y73.688 F12000.000
G1 X106.250 Y66.313 E27.96862 F1200.000
G1 X106.500 Y66.250 E27.97305
G1 X113.500 Y66.250 E28.09333
G1 X113.707 Y66.293 E28.09697
G1 X113.750 Y66.500 E28.10060
G1 X113.750 Y73.500 E28.22088
G1 X113.707 Y73.707 E28.22452
G1 X113.500 Y73.750 E28.22815
G1 X106.500 Y73.750 E28.34843
G1 X106.323 Y73.706 E28.35157
G1 F1800.000 E27.35157
G92 E0
G1 Z4.800 F12000.000
G1 X106.750 Y73.250 F12000.000
G1 E1.00000 F1800.000
G1 X106.750 Y66.750 E1.18391 F1800.000
G1 X113.250 Y66.750 E1.36782
G1 X113.250 Y73.250 E1.55174
G1 X106.825 Y73.250 E1.73353
G1 X107.250 Y72.750 F12000.000
G1 X107.250 Y67.250 E1.88915 F1260.000
G1 X112.750 Y67.250 E2.04476
G1 X112.750 Y72.750 E2.20038
G1 X107.325 Y72.750 E2.35388
G1 X106.750 Y72.750 F12000.000
G1 X105.750 Y73.250 F12000.000
G1 X74.250 Y73.250 E3.24515 F1800.000
G1 X74.250 Y66.750 E3.42906
G1 X105.750 Y66.750 E4.32033
G1 X105.750 Y73.175 E4.50212
G1 X105.250 Y72.750 F12000.000
G1 X74.750 Y72.750 E5.36509 F1260.000
G1 X74.750 Y67.250 E5.52071
G1 X105.250 Y67.250 E6.38368
G1 X105.250 Y72.675 E6.53718
G1 X105.250 Y73.250 F12000.000
G1 X73.250 Y73.250 F12000.000
G1 X66.750 Y73.250 E6.72109 F1800.000
G1 X66.750 Y66.750 E6.90500
G1 X73.250 Y66.750 E7.08891
G1 X73.250 Y73.175 E7.27070
G1 X72.750 Y72.750 F12000.000
G1 X67.250 Y72.750 E7.42632 F1260.000
G1 X67.250 Y67.250 E7.58194
G1 X72.750 Y67.250 E7.73756
G1 X72.750 Y72.675 E7.89106
G1 X72.750 Y73.250 F12000.000
G1 X73.250 Y74.250 F12000.000
G1 X73.250 Y105.750 E8.78232 F1800.000
G1 X66.750 Y105.750 E8.96624
G1 X66.750 Y74.250 E9.85750
G1 X73.175 Y74.250 E10.03929
G1 X72.750 Y74.750 F12000.000
G1 X72.750 Y105.250 E10.90227 F1260.000
G1 X67.250 Y105.250 E11.05789
G1 X67.250 Y74.750 E11.92086
G1 X72.675 Y74.750 E12.07435
G1 X73.250 Y74.750 F12000.000
G1 X73.250 Y106.750 F12000.000
G1 X73.250 Y113.250 E12.25827 F1800.000
G1 X66.750 Y113.250 E12.44218
G1 X66.750 Y106.750 E12.62609
G1 X73.175 Y106.750 E12.80788
G1 X72.750 Y107.250 F12000.000
G1 X72.750 Y112.750 E12.96350 F1260.000
G1 X67.250 Y112.750 E13.11912
G1 X67.250 Y107.250 E13.27474
G1 X72.675 Y107.250 E13.42823
G1 X73.250 Y107.250 F12000.000
G1 X74.250 Y74.250 F12000.000
G1 X74.250 Y114.250 E14.56000 F1800.000
G1 X65.750 Y114.250 E14.80050
G1 X65.750 Y65.750 E16.17277
G1 X114.250 Y65.750 E17.54504
G1 X114.250 Y74.250 E17.78554
G1 X74.325 Y74.250 E18.91519
G1 X74.750 Y74.750 F12000.000
G1 X74.750 Y114.750 E20.04696 F1260.000
G1 X65.250 Y114.750 E20.31575
G1 X65.250 Y65.250 E21.71632
G1 X114.750 Y65.250 E23.11688
G1 X114.750 Y74.750 E23.38567
G1 X74.825 Y74.750 E24.51532
G1 X74.250 Y74.750 F12000.000
G1 X73.750 Y73.250 F12000.000
G1 X73.750 Y106.000 E25.07807 F1200.000
G1 X73.688 Y106.250 E25.08249
G1 X66.313 Y106.250 E25.20922
G1 X66.250 Y106.500 E25.21365
G1 X66.250 Y113.500 E25.33393
G1 X66.293 Y113.707 E25.33756
G1 X66.500 Y113.750 E25.34120
G1 X73.500 Y113.750 E25.46148
G1 X73.707 Y113.707 E25.46511
G1 X73.750 Y113.500 E25.46875
G1 X73.750 Y106.500 E25.58903
G1 X73.566 Y105.765 E25.60205
G1 X66.434 Y106.735 F12000.000
G1 X66.250 Y106.000 E25.61507 F1200.000
G1 X66.250 Y74.000 E26.16493
G1 X66.313 Y73.750 E26.16936
G1 X74.250 Y73.750 E26.30575
G1 X74.235 Y66.434 F12000.000
G1 X73.500 Y66.250 E26.31877 F1200.000
G1 X66.500 Y66.250 E26.43905
G1 X66.293 Y66.293 E26.44268
G1 X66.250 Y66.500 E26.44632
G1 X66.250 Y73.500 E26.56660
G1 X66.434 Y74.235 E26.57962
G1 X106.735 Y73.566 F12000.000
G1 X106.000 Y73.750 E26.59264 F1200.000
G1 X73.750 Y73.750 E27.14679
G1 X73.750 Y66.313 E27.27459
G1 X74.000 Y66.250 E27.27902
G1 X106.000 Y66.250 E27.82888
G1 X106.735 Y66.434 E27.84190
G1 X106.250 Y73.688 F12000.000
G1 X106.250 Y66.313 E27.96862 F1200.000
G1 X106.500 Y66.250 E27.97305
G1 X113.500 Y66.250 E28.09333
G1 X113.707 Y66.293 E28.09697
G1 X113.750 Y66.500 E28.10060
G1 X113.750 Y73.500 E28.22088
G1 X113.707 Y73.707 E28.22452
G1 X113.500 Y73.750 E28.22815
G1 X106.500 Y73.750 E28.34843
G1 X106.323 Y73.706 E28.35157
G1 F1800.000 E27.35157
G92 E0
G1 Z5.200 F12000.000
G1 X106.750 Y73.250 F12000.000
G1 E1.00000 F1800.000
G1 X106.750 Y66.750 E1.18391 F1800.000
G1 X113.250 Y66.750 E1.36782
G1 X113.250 Y73.250 E1.55174
G1 X106.825 Y73.250 E1.73353
G1 X107.250 Y72.750 F12000.000
G1 X107.250 Y67.250 E1.88915 F1260.000
G1 X112.750 Y67.250 E2.04476
G1 X112.750 Y72.750 E2.20038
G1 X107.325 Y72.750 E2.35388
G1 X106.750 Y72.750 F12000.000
G1 X105.750 Y73.250 F12000.000
G1 X74.250 Y73.250 E3.24515 F1800.000
G1 X74.250 Y66.750 E3.42906
G1 X105.750 Y66.750 E4.32033
G1 X105.750 Y73.175 E4.50212
G1 X105.250 Y72.750 F12000.000
G1 X74.750 Y72.750 E5.36509 F1260.000
G1 X74.750 Y67.250 E5.52071
G1 X105.250 Y67.250 E6.38368
G1 X105.250 Y72.675 E6.53718
G1 X105.250 Y73.250 F12000.000
G1 F1800.000 E5.53718
G92 E0
G1 X73.250 Y73.250 F12000.000
G1 E1.00000 F1800.000
G1 X66.750 Y73.250 E1.18391 F1800.000
G1 X66.750 Y66.750 E1.36782
G1 X73.250 Y66.750 E1.55174
G1 X73.250 Y73.175 E1.73353
G1 X72.750 Y72.750 F12000.000
G1 X67.250 Y72.750 E1.88915 F1260.000
G1 X67.250 Y67.250 E2.04476
G1 X72.750 Y67.250 E2.20038
G1 X72.750 Y72.675 E2.35388
G1 X72.750 Y73.250 F12000.000
G1 X73.250 Y74.250 F12000.000
G1 X73.250 Y105.750 E3.24515 F1800.000
G1 X66.750 Y105.750 E3.42906
G1 X66.750 Y74.250 E4.32033
G1 X73.175 Y74.250 E4.50212
G1 X72.750 Y74.750 F12000.000
G1 X72.750 Y105.250 E5.36509 F1260.000
G1 X67.250 Y105.250 E5.52071
G1 X67.250 Y74.750 E6.38368
G1 X72.675 Y74.750 E6.53718
G1 X73.250 Y74.750 F12000.000
G1 F1800.000 E5.53718
G92 E0
G1 X73.250 Y106.750 F12000.000
G1 E1.00000 F1800.000
G1 X73.250 Y113.250 E1.18391 F1800.000
G1 X66.750 Y113.250 E1.36782
G1 X66.750 Y106.750 E1.55174
G1 X73.175 Y106.750 E1.73353
G1 X72.750 Y107.250 F12000.000
G1 X72.750 Y112.750 E1.88915 F1260.000
G1 X67.250 Y112.750 E2.04476
G1 X67.250 Y107.250 E2.20038
G1 X72.675 Y107.250 E2.35388
G1 X73.250 Y107.250 F12000.000
G1 F1800.000 E1.35388
G92 E0
G1 X74.250 Y74.250 F12000.000
G1 E1.00000 F1800.000
G1 X74.250 Y114.250 E2.13177 F1800.000
G1 X65.750 Y114.250 E2.37227
G1 X65.750 Y65.750 E3.74454
G1 X114.250 Y65.750 E5.11681
G1 X114.250 Y74.250 E5.35731
G1 X74.325 Y74.250 E6.48696
G1 X74.750 Y74.750 F12000.000
G1 X74.750 Y114.750 E7.61872 F1260.000
G1 X65.250 Y114.750 E7.88752
G1 X65.250 Y65.250 E9.28808
G1 X114.750 Y65.250 E10.68865
G1 X114.750 Y74.750 E10.95744
G1 X74.825 Y74.750 E12.08709
G1 X74.250 Y74.750 F12000.000
G1 X73.750 Y73.250 F12000.000
G1 X73.750 Y106.000 E12.64983 F1200.000
G1 X73.688 Y106.250 E12.65426
G1 X66.313 Y106.250 E12.78099
G1 X66.250 Y106.500 E12.78542
G1 X66.250 Y113.500 E12.90570
G1 X66.293 Y113.707 E12.90933
G1 X66.500 Y113.750 E12.91297
G1 X73.500 Y113.750 E13.03325
G1 X73.707 Y113.707 E13.03688
G1 X73.750 Y113.500 E13.04052
G1 X73.750 Y106.500 E13.16080
G1 X73.566 Y105.765 E13.17382
G1 F1800.000 E12.17382
G92 E0
G1 X66.434 Y106.735 F12000.000
G1 E1.00000 F1800.000
G1 X66.250 Y106.000 E1.01302 F1200.000
G1 X66.250 Y74.000 E1.56288
G1 X66.313 Y73.750 E1.56731
G1 X74.250 Y73.750 E1.70370
G1 F1800.000 E0.70370
G92 E0
G1 X74.235 Y66.434 F12000.000
G1 E1.00000 F1800.000
G1 X73.500 Y66.250 E1.01302 F1200.000
G1 X66.500 Y66.250 E1.13330
G1 X66.293 Y66.293 E1.13694
G1 X66.250 Y66.500 E1.14057
G1 X66.250 Y73.500 E1.26085
G1 X66.434 Y74.235 E1.27387
G1 F1800.000 E0.27387
G92 E0
G1 X106.735 Y73.566 F12000.000
G1 E1.00000 F1800.000
G1 X106.000 Y73.750 E1.01302 F1200.000
G1 X73.750 Y73.750 E1.56717
G1 X73.750 Y66.313 E1.69497
G1 X74.000 Y66.250 E1.69940
G1 X106.000 Y66.250 E2.24926
G1 X106.735 Y66.434 E2.26228
G1 F1800.000 E1.26228
G92 E0
G1 X106.250 Y73.688 F12000.000
G1 E1.00000 F1800.000
G1 X106.250 Y66.313 E1.12673 F1200.000
G1 X106.500 Y66.250 E1.13115
G1 X113.500 Y66.250 E1.25144
G1 X113.707 Y66.293 E1.25507
G1 X113.750 Y66.500 E1.25870
G1 X113.750 Y73.500 E1.37899
G1 X113.707 Y73.707 E1.38262
G1 X113.500 Y73.750 E1.38625
G1 X106.500 Y73.750 E1.50654
G1 X106.323 Y73.706 E1.50967
G1 F1800.000 E0.50967
G92 E0
M107
M104 S0 ; turn off temperature
G28 X0  ; home X axis
M84     ; disable motors
M177 ; disable big cooler
G91 ; relative mode
G1 Z20 ; lift nozzle
G90 ; absolute mode
; filament used = 418.9mm (3.0cm3)

; avoid_crossing_perimeters = 0
; bed_size = 200,200
; bed_temperature = 0
; bridge_acceleration = 0
; bridge_fan_speed = 100
; bridge_flow_ratio = 1
; brim_width = 5
; complete_objects = 0
; cooling = 1
; default_acceleration = 0
; disable_fan_first_layers = 1
; duplicate_distance = 6
; end_gcode = M104 S0 ; turn off temperature\nG28 X0  ; home X axis\nM84     ; disable motors\nM177 ; disable big cooler\nG91 ; relative mode\nG1 Z20 ; lift nozzle\nG90 ; absolute mode
; external_perimeters_first = 0
; extruder_clearance_height = 20
; extruder_clearance_radius = 20
; extruder_offset = 0x0
; extrusion_axis = E
; extrusion_multiplier = 1
; fan_always_on = 0
; fan_below_layer_time = 60
; filament_diameter = 3
; first_layer_acceleration = 0
; first_layer_bed_temperature = 0
; first_layer_extrusion_width = 150%
; first_layer_speed = 30%
; first_layer_temperature = 245
; g0 = 0
; gcode_arcs = 0
; gcode_comments = 0
; gcode_flavor = reprap
; infill_acceleration = 0
; infill_first = 0
; layer_gcode = 
; max_fan_speed = 100
; min_fan_speed = 35
; min_print_speed = 10
; min_skirt_length = 0
; notes = 
; nozzle_diameter = 0.5
; only_retract_when_crossing_perimeters = 1
; ooze_prevention = 0
; output_filename_format = [input_filename_base].gcode
; perimeter_acceleration = 0
; post_process = 
; print_center = 90,90
; resolution = 0
; retract_before_travel = 2
; retract_layer_change = 1
; retract_length = 1
; retract_length_toolchange = 10
; retract_lift = 0
; retract_restart_extra = 0
; retract_restart_extra_toolchange = 0
; retract_speed = 30
; skirt_distance = 6
; skirt_height = 1
; skirts = 1
; slowdown_below_layer_time = 30
; spiral_vase = 0
; standby_temperature_delta = -5
; start_gcode = G28 ; home all axes\nG92 X0 Y0 Z0 ; reset position - need to be removed after end stoppers will be set up\nG1 Z5 F5000 ; lift nozzle\nM176 S255 ; enable big cooler\n\n
; temperature = 240
; threads = 2
; toolchange_gcode = 
; travel_speed = 200
; use_firmware_retraction = 0
; use_relative_e_distances = 0
; vibration_limit = 0
; wipe = 0
; z_offset = 0
; dont_support_bridges = 1
; extrusion_width = 0
; first_layer_height = 0.4
; infill_only_where_needed = 0
; interface_shells = 0
; layer_height = 0.4
; raft_layers = 0
; seam_position = aligned
; support_material = 0
; support_material_angle = 0
; support_material_enforce_layers = 0
; support_material_extruder = 1
; support_material_extrusion_width = 0
; support_material_interface_extruder = 1
; support_material_interface_layers = 3
; support_material_interface_spacing = 0
; support_material_interface_speed = 100%
; support_material_pattern = pillars
; support_material_spacing = 2.5
; support_material_speed = 60
; support_material_threshold = 0
; bottom_solid_layers = 3
; bridge_speed = 60
; external_perimeter_speed = 70%
; extra_perimeters = 1
; fill_angle = 45
; fill_density = 80%
; fill_pattern = honeycomb
; gap_fill_speed = 20
; infill_every_layers = 1
; infill_extruder = 1
; infill_extrusion_width = 0
; infill_speed = 60
; overhangs = 1
; perimeter_extruder = 1
; perimeter_extrusion_width = 0
; perimeter_speed = 30
; perimeters = 3
; small_perimeter_speed = 30
; solid_fill_pattern = rectilinear
; solid_infill_below_area = 70
; solid_infill_every_layers = 0
; solid_infill_extrusion_width = 0
; solid_infill_speed = 60
; thin_walls = 1
; top_infill_extrusion_width = 0
; top_solid_infill_speed = 50
; top_solid_layers = 3
