; generated by Slic3r 1.1.7 on 2014-10-24 at 18:19:39

; perimeters extrusion width = 0.50mm
; infill extrusion width = 0.52mm
; solid infill extrusion width = 0.52mm
; top infill extrusion width = 0.52mm

G21 ; set units to millimeters
M107
G28 ; home all axes
G1 Z5 F5000 ; lift nozzle
M176 S255 ; enable big cooler

G90 ; use absolute coordinates
G92 E0
M82 ; use absolute distances for extrusion
G1 F1800.000 E-1.00000
G92 E0
G1 Z0.400 F12000.000
G1 X3.021 Y3.528 F12000.000
G1 E1.00000 F1800.000
G1 X4.562 Y2.208 E1.08448 F1080.000
G1 X6.724 Y1.386 E1.18075
G1 X8.000 Y1.264 E1.23410
G1 X164.000 Y1.264 E7.72800
G1 X166.278 Y1.661 E7.82427
G1 X168.288 Y2.806 E7.92054 F1080.000
G1 X169.792 Y4.562 E8.01681
G1 X170.614 Y6.724 E8.11308
G1 X170.736 Y8.000 E8.16643
G1 X170.736 Y164.000 E14.66033
G1 X170.339 Y166.278 E14.75660
G1 X169.194 Y168.288 E14.85287
G1 X167.438 Y169.792 E14.94914
G1 X165.276 Y170.614 E15.04542
G1 X164.000 Y170.736 E15.09876
G1 X8.000 Y170.736 E21.59266
G1 X5.722 Y170.339 E21.68893
G1 X3.712 Y169.194 E21.78520
G1 X2.208 Y167.438 E21.88148
G1 X1.386 Y165.276 E21.97775
G1 X1.264 Y164.000 E22.03110
G1 X1.264 Y8.000 E28.52499
G1 X1.661 Y5.722 E28.62126
G1 X2.806 Y3.712 E28.71754
G1 X2.964 Y3.576 E28.72620
G1 X4.886 Y5.393 F12000.000
G1 X6.324 Y3.954 E28.81088 F1080.000
G1 X21.676 Y3.954 E29.44994
G1 X22.695 Y4.974 E29.50995
G1 X23.305 Y4.974 E29.53532 F1080.000
G1 X24.324 Y3.954 E29.59534
G1 X39.676 Y3.954 E30.23439
G1 X40.695 Y4.974 E30.29441
G1 X41.305 Y4.974 E30.31977
G1 X42.324 Y3.954 E30.37979
G1 X57.676 Y3.954 E31.01884
G1 X58.695 Y4.974 E31.07886
G1 X59.305 Y4.974 E31.10422
G1 X60.324 Y3.954 E31.16424
G1 X75.676 Y3.954 E31.80329
G1 X76.695 Y4.974 E31.86331
G1 X77.305 Y4.974 E31.88868
G1 X78.324 Y3.954 E31.94869
G1 X93.676 Y3.954 E32.58774
G1 X94.695 Y4.974 E32.64776
G1 X95.305 Y4.974 E32.67313
G1 X96.324 Y3.954 E32.73314
G1 X111.676 Y3.954 E33.37220
G1 X112.695 Y4.974 E33.43221
G1 X113.305 Y4.974 E33.45758
G1 X114.324 Y3.954 E33.51759
G1 X129.676 Y3.954 E34.15665
G1 X130.695 Y4.974 E34.21666
G1 X131.305 Y4.974 E34.24203
G1 X132.324 Y3.954 E34.30204
G1 X147.676 Y3.954 E34.94110
G1 X148.695 Y4.974 E35.00111
G1 X149.305 Y4.974 E35.02648
G1 X150.324 Y3.954 E35.08649
G1 X165.676 Y3.954 E35.72555
G1 X168.046 Y6.324 E35.86507
G1 X168.046 Y21.676 E36.50413
G1 X167.026 Y22.695 E36.56414
G1 X167.026 Y23.305 E36.58951
G1 X168.046 Y24.324 E36.64953
G1 X168.046 Y39.676 E37.28858
G1 X167.026 Y40.695 E37.34859
G1 X167.026 Y41.305 E37.37396
G1 X168.046 Y42.324 E37.43398
G1 X168.046 Y57.676 E38.07303
G1 X167.026 Y58.695 E38.13305
G1 X167.026 Y59.305 E38.15841
G1 X168.046 Y60.324 E38.21843
G1 X168.046 Y75.676 E38.85748
G1 X167.026 Y76.695 E38.91750
G1 X167.026 Y77.305 E38.94287
G1 X168.046 Y78.324 E39.00288
G1 X168.046 Y93.676 E39.64193
G1 X167.026 Y94.695 E39.70195
G1 X167.026 Y95.305 E39.72732
G1 X168.046 Y96.324 E39.78733
G1 X168.046 Y111.676 E40.42639
G1 X167.026 Y112.695 E40.48640
G1 X167.026 Y113.305 E40.51177
G1 X168.046 Y114.324 E40.57178
G1 X168.046 Y129.676 E41.21084
G1 X167.026 Y130.695 E41.27085
G1 X167.026 Y131.305 E41.29622
G1 X168.046 Y132.324 E41.35623
G1 X168.046 Y147.676 E41.99529
G1 X167.026 Y148.695 E42.05530
G1 X167.026 Y149.305 E42.08067
G1 X168.046 Y150.324 E42.14068
G1 X168.046 Y165.676 E42.77974
G1 X165.676 Y168.046 E42.91926
G1 X150.324 Y168.046 E43.55832
G1 X149.305 Y167.026 E43.61833
G1 X148.695 Y167.026 E43.64370
G1 X147.676 Y168.046 E43.70372
G1 X132.324 Y168.046 E44.34277
G1 X131.305 Y167.026 E44.40278
G1 X130.695 Y167.026 E44.42815
G1 X129.676 Y168.046 E44.48817
G1 X114.324 Y168.046 E45.12722
G1 X113.305 Y167.026 E45.18724
G1 X112.695 Y167.026 E45.21260
G1 X111.676 Y168.046 E45.27262
G1 X96.324 Y168.046 E45.91167
G1 X95.305 Y167.026 E45.97169
G1 X94.695 Y167.026 E45.99706
G1 X93.676 Y168.046 E46.05707
G1 X78.324 Y168.046 E46.69612
G1 X77.305 Y167.026 E46.75614
G1 X76.695 Y167.026 E46.78151
G1 X75.676 Y168.046 E46.84152
G1 X60.324 Y168.046 E47.48058
G1 X59.305 Y167.026 E47.54059
G1 X58.695 Y167.026 E47.56596
G1 X57.676 Y168.046 E47.62597
G1 X42.324 Y168.046 E48.26503
G1 X41.305 Y167.026 E48.32504
G1 X40.695 Y167.026 E48.35041
G1 X39.676 Y168.046 E48.41042
G1 X24.324 Y168.046 E49.04948
G1 X23.305 Y167.026 E49.10949
G1 X22.695 Y167.026 E49.13486
G1 X21.676 Y168.046 E49.19487
G1 X6.324 Y168.046 E49.83393
G1 X3.954 Y165.676 E49.97345
G1 X3.954 Y150.324 E50.61251
G1 X4.974 Y149.305 E50.67252
G1 X4.974 Y148.695 E50.69789
G1 X3.954 Y147.676 E50.75791
G1 X3.954 Y132.324 E51.39696
G1 X4.974 Y131.305 E51.45697
G1 X4.974 Y130.695 E51.48234
G1 X3.954 Y129.676 E51.54236
G1 X3.954 Y114.324 E52.18141
G1 X4.974 Y113.305 E52.24143
G1 X4.974 Y112.695 E52.26679
G1 X3.954 Y111.676 E52.32681
G1 X3.954 Y96.324 E52.96586
G1 X4.974 Y95.305 E53.02588
G1 X4.974 Y94.695 E53.05124
G1 X3.954 Y93.676 E53.11126
G1 X3.954 Y78.324 E53.75031
G1 X4.974 Y77.305 E53.81033
G1 X4.974 Y76.695 E53.83570
G1 X3.954 Y75.676 E53.89571
G1 X3.954 Y60.324 E54.53477
G1 X4.974 Y59.305 E54.59478
G1 X4.974 Y58.695 E54.62015
G1 X3.954 Y57.676 E54.68016
G1 X3.954 Y42.324 E55.31922
G1 X4.974 Y41.305 E55.37923
G1 X4.974 Y40.695 E55.40460
G1 X3.954 Y39.676 E55.46461
G1 X3.954 Y24.324 E56.10367
G1 X4.974 Y23.305 E56.16368
G1 X4.974 Y22.695 E56.18905
G1 X3.954 Y21.676 E56.24906
G1 X3.954 Y6.324 E56.88812
G1 X4.833 Y5.446 E56.93984
G1 X5.406 Y5.913 F12000.000
G1 X6.629 Y4.690 E57.01184 F1080.000
G1 X21.371 Y4.690 E57.62552
G1 X22.695 Y6.014 E57.70348 F1080.000
G1 X23.305 Y6.014 E57.72884
G1 X24.629 Y4.690 E57.80680
G1 X39.371 Y4.690 E58.42048
G1 X40.695 Y6.014 E58.49844
G1 X41.305 Y6.014 E58.52380
G1 X42.629 Y4.690 E58.60176
G1 X57.371 Y4.690 E59.21544
G1 X58.695 Y6.014 E59.29339
G1 X59.305 Y6.014 E59.31876
G1 X60.629 Y4.690 E59.39671
G1 X75.371 Y4.690 E60.01040
G1 X76.695 Y6.014 E60.08835
G1 X77.305 Y6.014 E60.11372
G1 X78.629 Y4.690 E60.19167
G1 X93.371 Y4.690 E60.80536
G1 X94.695 Y6.014 E60.88331
G1 X95.305 Y6.014 E60.90868
G1 X96.629 Y4.690 E60.98663
G1 X111.371 Y4.690 E61.60032
G1 X112.695 Y6.014 E61.67827
G1 X113.305 Y6.014 E61.70364
G1 X114.629 Y4.690 E61.78159
G1 X129.371 Y4.690 E62.39528
G1 X130.695 Y6.014 E62.47323
G1 X131.305 Y6.014 E62.49860
G1 X132.629 Y4.690 E62.57655
G1 X147.371 Y4.690 E63.19024
G1 X148.695 Y6.014 E63.26819
G1 X149.305 Y6.014 E63.29356
G1 X150.629 Y4.690 E63.37151
G1 X165.371 Y4.690 E63.98520
G1 X167.310 Y6.629 E64.09935
G1 X167.310 Y21.371 E64.71304
G1 X165.986 Y22.695 E64.79099
G1 X165.986 Y23.305 E64.81636
G1 X167.310 Y24.629 E64.89431
G1 X167.310 Y39.371 E65.50800
G1 X165.986 Y40.695 E65.58595
G1 X165.986 Y41.305 E65.61132
G1 X167.310 Y42.629 E65.68927
G1 X167.310 Y57.371 E66.30296
G1 X165.986 Y58.695 E66.38091
G1 X165.986 Y59.305 E66.40628
G1 X167.310 Y60.629 E66.48423
G1 X167.310 Y75.371 E67.09792
G1 X165.986 Y76.695 E67.17587
G1 X165.986 Y77.305 E67.20124
G1 X167.310 Y78.629 E67.27919
G1 X167.310 Y93.371 E67.89288
G1 X165.986 Y94.695 E67.97083
G1 X165.986 Y95.305 E67.99620
G1 X167.310 Y96.629 E68.07415
G1 X167.310 Y111.371 E68.68784
G1 X165.986 Y112.695 E68.76579
G1 X165.986 Y113.305 E68.79116
G1 X167.310 Y114.629 E68.86911
G1 X167.310 Y129.371 E69.48279
G1 X165.986 Y130.695 E69.56075
G1 X165.986 Y131.305 E69.58611
G1 X167.310 Y132.629 E69.66407
G1 X167.310 Y147.371 E70.27775
G1 X165.986 Y148.695 E70.35571
G1 X165.986 Y149.305 E70.38107
G1 X167.310 Y150.629 E70.45903
G1 X167.310 Y165.371 E71.07271
G1 X165.371 Y167.310 E71.18687
G1 X150.629 Y167.310 E71.80056
G1 X149.305 Y165.986 E71.87851
G1 X148.695 Y165.986 E71.90388
G1 X147.371 Y167.310 E71.98183
G1 X132.629 Y167.310 E72.59552
G1 X131.305 Y165.986 E72.67347
G1 X130.695 Y165.986 E72.69884
G1 X129.371 Y167.310 E72.77679
G1 X114.629 Y167.310 E73.39047
G1 X113.305 Y165.986 E73.46843
G1 X112.695 Y165.986 E73.49379
G1 X111.371 Y167.310 E73.57175
G1 X96.629 Y167.310 E74.18543
G1 X95.305 Y165.986 E74.26339
G1 X94.695 Y165.986 E74.28875
G1 X93.371 Y167.310 E74.36671
G1 X78.629 Y167.310 E74.98039
G1 X77.305 Y165.986 E75.05834
G1 X76.695 Y165.986 E75.08371
G1 X75.371 Y167.310 E75.16166
G1 X60.629 Y167.310 E75.77535
G1 X59.305 Y165.986 E75.85330
G1 X58.695 Y165.986 E75.87867
G1 X57.371 Y167.310 E75.95662
G1 X42.629 Y167.310 E76.57031
G1 X41.305 Y165.986 E76.64826
G1 X40.695 Y165.986 E76.67363
G1 X39.371 Y167.310 E76.75158
G1 X24.629 Y167.310 E77.36527
G1 X23.305 Y165.986 E77.44322
G1 X22.695 Y165.986 E77.46859
G1 X21.371 Y167.310 E77.54654
G1 X6.629 Y167.310 E78.16023
G1 X4.690 Y165.371 E78.27438
G1 X4.690 Y150.629 E78.88807
G1 X6.014 Y149.305 E78.96602
G1 X6.014 Y148.695 E78.99139
G1 X4.690 Y147.371 E79.06934
G1 X4.690 Y132.629 E79.68303
G1 X6.014 Y131.305 E79.76098
G1 X6.014 Y130.695 E79.78635
G1 X4.690 Y129.371 E79.86430
G1 X4.690 Y114.629 E80.47799
G1 X6.014 Y113.305 E80.55594
G1 X6.014 Y112.695 E80.58131
G1 X4.690 Y111.371 E80.65926
G1 X4.690 Y96.629 E81.27295
G1 X6.014 Y95.305 E81.35090
G1 X6.014 Y94.695 E81.37627
G1 X4.690 Y93.371 E81.45422
G1 X4.690 Y78.629 E82.06791
G1 X6.014 Y77.305 E82.14586
G1 X6.014 Y76.695 E82.17123
G1 X4.690 Y75.371 E82.24918
G1 X4.690 Y60.629 E82.86287
G1 X6.014 Y59.305 E82.94082
G1 X6.014 Y58.695 E82.96619
G1 X4.690 Y57.371 E83.04414
G1 X4.690 Y42.629 E83.65783
G1 X6.014 Y41.305 E83.73578
G1 X6.014 Y40.695 E83.76115
G1 X4.690 Y39.371 E83.83910
G1 X4.690 Y24.629 E84.45279
G1 X6.014 Y23.305 E84.53074
G1 X6.014 Y22.695 E84.55611
G1 X4.690 Y21.371 E84.63406
G1 X4.690 Y6.629 E85.24774
G1 X5.353 Y5.966 E85.28678
G1 X5.926 Y6.433 F12000.000
G1 X6.934 Y5.425 E85.34609 F1080.000
G1 X21.066 Y5.425 E85.93441
G1 X22.695 Y7.054 E86.03030
G1 X23.305 Y7.054 E86.05567 F1080.000
G1 X24.934 Y5.425 E86.15156
G1 X39.066 Y5.425 E86.73988
G1 X40.695 Y7.054 E86.83577
G1 X41.305 Y7.054 E86.86114
G1 X42.934 Y5.425 E86.95703
G1 X57.066 Y5.425 E87.54535
G1 X58.695 Y7.054 E87.64124
G1 X59.305 Y7.054 E87.66661
G1 X60.934 Y5.425 E87.76250
G1 X75.066 Y5.425 E88.35081
G1 X76.695 Y7.054 E88.44670
G1 X77.305 Y7.054 E88.47207
G1 X78.934 Y5.425 E88.56796
G1 X93.066 Y5.425 E89.15628
G1 X94.695 Y7.054 E89.25217
G1 X95.305 Y7.054 E89.27754
G1 X96.934 Y5.425 E89.37343
G1 X111.066 Y5.425 E89.96175
G1 X112.695 Y7.054 E90.05764
G1 X113.305 Y7.054 E90.08301
G1 X114.934 Y5.425 E90.17890
G1 X129.066 Y5.425 E90.76721
G1 X130.695 Y7.054 E90.86310
G1 X131.305 Y7.054 E90.88847
G1 X132.934 Y5.425 E90.98436
G1 X147.066 Y5.425 E91.57268
G1 X148.695 Y7.054 E91.66857
G1 X149.305 Y7.054 E91.69394
G1 X150.934 Y5.425 E91.78983
G1 X165.066 Y5.425 E92.37815
G1 X166.575 Y6.934 E92.46694
G1 X166.575 Y21.066 E93.05526
G1 X164.946 Y22.695 E93.15115
G1 X164.946 Y23.305 E93.17651
G1 X166.575 Y24.934 E93.27240
G1 X166.575 Y39.066 E93.86072
G1 X164.946 Y40.695 E93.95661
G1 X164.946 Y41.305 E93.98198
G1 X166.575 Y42.934 E94.07787
G1 X166.575 Y57.066 E94.66619
G1 X164.946 Y58.695 E94.76208
G1 X164.946 Y59.305 E94.78745
G1 X166.575 Y60.934 E94.88334
G1 X166.575 Y75.066 E95.47166
G1 X164.946 Y76.695 E95.56755
G1 X164.946 Y77.305 E95.59291
G1 X166.575 Y78.934 E95.68880
G1 X166.575 Y93.066 E96.27712
G1 X164.946 Y94.695 E96.37301
G1 X164.946 Y95.305 E96.39838
G1 X166.575 Y96.934 E96.49427
G1 X166.575 Y111.066 E97.08259
G1 X164.946 Y112.695 E97.17848
G1 X164.946 Y113.305 E97.20385
G1 X166.575 Y114.934 E97.29974
G1 X166.575 Y129.066 E97.88806
G1 X164.946 Y130.695 E97.98395
G1 X164.946 Y131.305 E98.00932
G1 X166.575 Y132.934 E98.10521
G1 X166.575 Y147.066 E98.69352
G1 X164.946 Y148.695 E98.78941
G1 X164.946 Y149.305 E98.81478
G1 X166.575 Y150.934 E98.91067
G1 X166.575 Y165.066 E99.49899
G1 X165.066 Y166.575 E99.58778
G1 X150.934 Y166.575 E100.17610
G1 X149.305 Y164.946 E100.27199
G1 X148.695 Y164.946 E100.29736
G1 X147.066 Y166.575 E100.39325
G1 X132.934 Y166.575 E100.98157
G1 X131.305 Y164.946 E101.07746
G1 X130.695 Y164.946 E101.10282
G1 X129.066 Y166.575 E101.19871
G1 X114.934 Y166.575 E101.78703
G1 X113.305 Y164.946 E101.88292
G1 X112.695 Y164.946 E101.90829
G1 X111.066 Y166.575 E102.00418
G1 X96.934 Y166.575 E102.59250
G1 X95.305 Y164.946 E102.68839
G1 X94.695 Y164.946 E102.71376
G1 X93.066 Y166.575 E102.80965
G1 X78.934 Y166.575 E103.39797
G1 X77.305 Y164.946 E103.49386
G1 X76.695 Y164.946 E103.51922
G1 X75.066 Y166.575 E103.61511
G1 X60.934 Y166.575 E104.20343
G1 X59.305 Y164.946 E104.29932
G1 X58.695 Y164.946 E104.32469
G1 X57.066 Y166.575 E104.42058
G1 X42.934 Y166.575 E105.00890
G1 X41.305 Y164.946 E105.10479
G1 X40.695 Y164.946 E105.13016
G1 X39.066 Y166.575 E105.22605
G1 X24.934 Y166.575 E105.81437
G1 X23.305 Y164.946 E105.91026
G1 X22.695 Y164.946 E105.93562
G1 X21.066 Y166.575 E106.03151
G1 X6.934 Y166.575 E106.61983
G1 X5.425 Y165.066 E106.70862
G1 X5.425 Y150.934 E107.29694
G1 X7.054 Y149.305 E107.39283
G1 X7.054 Y148.695 E107.41820
G1 X5.425 Y147.066 E107.51409
G1 X5.425 Y132.934 E108.10241
G1 X7.054 Y131.305 E108.19830
G1 X7.054 Y130.695 E108.22367
G1 X5.425 Y129.066 E108.31956
G1 X5.425 Y114.934 E108.90787
G1 X7.054 Y113.305 E109.00376
G1 X7.054 Y112.695 E109.02913
G1 X5.425 Y111.066 E109.12502
G1 X5.425 Y96.934 E109.71334
G1 X7.054 Y95.305 E109.80923
G1 X7.054 Y94.695 E109.83460
G1 X5.425 Y93.066 E109.93049
G1 X5.425 Y78.934 E110.51881
G1 X7.054 Y77.305 E110.61470
G1 X7.054 Y76.695 E110.64007
G1 X5.425 Y75.066 E110.73596
G1 X5.425 Y60.934 E111.32427
G1 X7.054 Y59.305 E111.42016
G1 X7.054 Y58.695 E111.44553
G1 X5.425 Y57.066 E111.54142
G1 X5.425 Y42.934 E112.12974
G1 X7.054 Y41.305 E112.22563
G1 X7.054 Y40.695 E112.25100
G1 X5.425 Y39.066 E112.34689
G1 X5.425 Y24.934 E112.93521
G1 X7.054 Y23.305 E113.03110
G1 X7.054 Y22.695 E113.05647
G1 X5.425 Y21.066 E113.15236
G1 X5.425 Y6.934 E113.74068
G1 X5.873 Y6.486 E113.76703
G1 X6.446 Y6.953 F12000.000
G1 X7.238 Y6.161 E113.81366 F1080.000
G1 X20.762 Y6.161 E114.37661
G1 X21.839 Y7.238 E114.44003 F1080.000
G1 X21.839 Y20.762 E115.00298
G1 X20.762 Y21.839 E115.06640
G1 X7.238 Y21.839 E115.62935
G1 X6.161 Y20.762 E115.69277
G1 X6.161 Y7.238 E116.25572
G1 X6.393 Y7.006 E116.26939
G1 X6.966 Y7.473 F12000.000
G1 X7.543 Y6.897 E116.30334 F1080.000
G1 X20.457 Y6.897 E116.84092
G1 X21.103 Y7.543 E116.87897
G1 X21.103 Y20.457 E117.41655 F1080.000
G1 X20.457 Y21.103 E117.45461
G1 X7.543 Y21.103 E117.99219
G1 X6.897 Y20.457 E118.03024
G1 X6.897 Y7.543 E118.56782
G1 X6.913 Y7.526 E118.56881
G1 X7.848 Y7.632 F12000.000
G1 X20.152 Y7.632 E119.08102 F1080.000
G1 X20.368 Y7.848 E119.09371
G1 X20.368 Y20.152 E119.60592
G1 X20.152 Y20.368 E119.61860
G1 X7.848 Y20.368 E120.13082
G1 X7.632 Y20.152 E120.14350
G1 X7.632 Y7.848 E120.65572
G1 X7.795 Y7.685 E120.66528
G1 F1800.000 E119.66528
G92 E0
G1 X7.848 Y24.161 F12000.000
G1 E1.00000 F1800.000
G1 X20.762 Y24.161 E1.53758 F1080.000
G1 X21.839 Y25.238 E1.60100 F1080.000
G1 X21.839 Y38.762 E2.16395
G1 X20.762 Y39.839 E2.22737
G1 X7.238 Y39.839 E2.79032
G1 X6.161 Y38.762 E2.85375
G1 X6.161 Y25.238 E3.41670
G1 X7.238 Y24.161 E3.48012
G1 X7.773 Y24.161 E3.50236
G1 X7.848 Y24.897 F12000.000
G1 X20.457 Y24.897 E4.02726 F1080.000
G1 X21.103 Y25.543 E4.06531
G1 X21.103 Y38.457 E4.60290 F1080.000
G1 X20.457 Y39.103 E4.64095
G1 X7.543 Y39.103 E5.17853
G1 X6.897 Y38.457 E5.21658
G1 X6.897 Y25.543 E5.75417
G1 X7.543 Y24.897 E5.79222
G1 X7.773 Y24.897 E5.80178
G1 X7.848 Y25.632 F12000.000
G1 X20.152 Y25.632 E6.31399 F1080.000
G1 X20.368 Y25.848 E6.32668
G1 X20.368 Y38.152 E6.83889
G1 X20.152 Y38.368 E6.85158
G1 X7.848 Y38.368 E7.36379
G1 X7.632 Y38.152 E7.37648
G1 X7.632 Y25.848 E7.88869
G1 X7.795 Y25.685 E7.89825
G1 F1800.000 E6.89825
G92 E0
G1 X7.848 Y42.161 F12000.000
G1 E1.00000 F1800.000
G1 X20.762 Y42.161 E1.53758 F1080.000
G1 X21.839 Y43.238 E1.60100 F1080.000
